;Machine Setup
M201 X500.00 Y500.00 Z100.00 E5000.00    ;Setup machine max acceleration
M203 X500.00 Y500.00 Z10.00 		;Setup machine max feedrate
;E feedrate limit set in firmware
M204 P500.00 R1000.00 T500.00          ;Setup Print/Retract/Travel acceleration
M205 X8.00 Y8.00 Z0.40 E5.00             ;Setup Jerk
M220 S100                                ;Reset Feedrate
M221 S100                                ;Reset Flowrate
G90					;Absolute positioning mode
M302 S0        ;Cold Extrude (set min extrude temp to 0) always allow extrusion
M83            ;Relative extrusion mode
G92 E0         ;Reset Extruder sets Extruder to 0
M92 E500       ;Increase extruder speed
;Homing and default stuff 
G28            				;Home
G0 Z8.0 F3000  				;Move Z Axis up
;starts the extruder a little higher to prevent dragging nibble clumps
;Pick up 0
G0 X125 Y170 Z25 F5000
G0 Z10 F5000
M106
G0 Z30 F5000
;Puck Refill 0
G0 E-75 F10000
G0 E10 F10000
G0 E-75 F10000
G0 E10 F10000
G0 E-100 F10000
;Dip in resin 0
G0 X50 Y173 Z35 F5000.0  ;Move to pos
G0 Z10 F5000.0  ;Move down
G0 Z35.0F5000.0   ;Move up
;Move to place location 0
G0 X74.226 Y74.226 Z10.0 F5000.0  ;Move Resin extruder to pos
G0 X74.226 Y74.226 Z0.0 F5000.0   ;Lower Resin extruder at pos
M107	              ;Turn vacuum off
G0 X74.226 Y74.226 Z10.0 F5000.0  ;Raise back up Resin extruder at pos
;Pick up 1
G0 X125 Y170 Z25 F5000
G0 Z10 F5000
M106
G0 Z30 F5000
;Puck Refill 1
G0 E-75 F10000
G0 E10 F10000
G0 E-75 F10000
G0 E10 F10000
G0 E-100 F10000
;Dip in resin 1
G0 X50 Y173 Z35 F5000.0  ;Move to pos
G0 Z10 F5000.0  ;Move down
G0 Z35.0F5000.0   ;Move up
;Move to place location 1
G0 X79.376 Y74.226 Z10.0 F5000.0  ;Move Resin extruder to pos
G0 X79.376 Y74.226 Z0.0 F5000.0   ;Lower Resin extruder at pos
M107	              ;Turn vacuum off
G0 X79.376 Y74.226 Z10.0 F5000.0  ;Raise back up Resin extruder at pos
;Pick up 2
G0 X125 Y170 Z25 F5000
G0 Z10 F5000
M106
G0 Z30 F5000
;Puck Refill 2
G0 E-75 F10000
G0 E10 F10000
G0 E-75 F10000
G0 E10 F10000
G0 E-100 F10000
;Dip in resin 2
G0 X50 Y173 Z35 F5000.0  ;Move to pos
G0 Z10 F5000.0  ;Move down
G0 Z35.0F5000.0   ;Move up
;Move to place location 2
G0 X84.492 Y74.226 Z10.0 F5000.0  ;Move Resin extruder to pos
G0 X84.492 Y74.226 Z0.0 F5000.0   ;Lower Resin extruder at pos
M107	              ;Turn vacuum off
G0 X84.492 Y74.226 Z10.0 F5000.0  ;Raise back up Resin extruder at pos
;Pick up 3
G0 X125 Y170 Z25 F5000
G0 Z10 F5000
M106
G0 Z30 F5000
;Puck Refill 3
G0 E-75 F10000
G0 E10 F10000
G0 E-75 F10000
G0 E10 F10000
G0 E-100 F10000
;Dip in resin 3
G0 X50 Y173 Z35 F5000.0  ;Move to pos
G0 Z10 F5000.0  ;Move down
G0 Z35.0F5000.0   ;Move up
;Move to place location 3
G0 X89.607 Y74.226 Z10.0 F5000.0  ;Move Resin extruder to pos
G0 X89.607 Y74.226 Z0.0 F5000.0   ;Lower Resin extruder at pos
M107	              ;Turn vacuum off
G0 X89.607 Y74.226 Z10.0 F5000.0  ;Raise back up Resin extruder at pos
;Pick up 4
G0 X125 Y170 Z25 F5000
G0 Z10 F5000
M106
G0 Z30 F5000
;Puck Refill 4
G0 E-75 F10000
G0 E10 F10000
G0 E-75 F10000
G0 E10 F10000
G0 E-100 F10000
;Dip in resin 4
G0 X50 Y173 Z35 F5000.0  ;Move to pos
G0 Z10 F5000.0  ;Move down
G0 Z35.0F5000.0   ;Move up
;Move to place location 4
G0 X94.758 Y74.226 Z10.0 F5000.0  ;Move Resin extruder to pos
G0 X94.758 Y74.226 Z0.0 F5000.0   ;Lower Resin extruder at pos
M107	              ;Turn vacuum off
G0 X94.758 Y74.226 Z10.0 F5000.0  ;Raise back up Resin extruder at pos
;Pick up 5
G0 X125 Y170 Z25 F5000
G0 Z10 F5000
M106
G0 Z30 F5000
;Puck Refill 5
G0 E-75 F10000
G0 E10 F10000
G0 E-75 F10000
G0 E10 F10000
G0 E-100 F10000
;Dip in resin 5
G0 X50 Y173 Z35 F5000.0  ;Move to pos
G0 Z10 F5000.0  ;Move down
G0 Z35.0F5000.0   ;Move up
;Move to place location 5
G0 X99.873 Y74.226 Z10.0 F5000.0  ;Move Resin extruder to pos
G0 X99.873 Y74.226 Z0.0 F5000.0   ;Lower Resin extruder at pos
M107	              ;Turn vacuum off
G0 X99.873 Y74.226 Z10.0 F5000.0  ;Raise back up Resin extruder at pos
;Pick up 6
G0 X125 Y170 Z25 F5000
G0 Z10 F5000
M106
G0 Z30 F5000
;Puck Refill 6
G0 E-75 F10000
G0 E10 F10000
G0 E-75 F10000
G0 E10 F10000
G0 E-100 F10000
;Dip in resin 6
G0 X50 Y173 Z35 F5000.0  ;Move to pos
G0 Z10 F5000.0  ;Move down
G0 Z35.0F5000.0   ;Move up
;Move to place location 6
G0 X104.988 Y74.226 Z10.0 F5000.0  ;Move Resin extruder to pos
G0 X104.988 Y74.226 Z0.0 F5000.0   ;Lower Resin extruder at pos
M107	              ;Turn vacuum off
G0 X104.988 Y74.226 Z10.0 F5000.0  ;Raise back up Resin extruder at pos
;Pick up 7
G0 X125 Y170 Z25 F5000
G0 Z10 F5000
M106
G0 Z30 F5000
;Puck Refill 7
G0 E-75 F10000
G0 E10 F10000
G0 E-75 F10000
G0 E10 F10000
G0 E-100 F10000
;Dip in resin 7
G0 X50 Y173 Z35 F5000.0  ;Move to pos
G0 Z10 F5000.0  ;Move down
G0 Z35.0F5000.0   ;Move up
;Move to place location 7
G0 X110.104 Y74.226 Z10.0 F5000.0  ;Move Resin extruder to pos
G0 X110.104 Y74.226 Z0.0 F5000.0   ;Lower Resin extruder at pos
M107	              ;Turn vacuum off
G0 X110.104 Y74.226 Z10.0 F5000.0  ;Raise back up Resin extruder at pos
;Pick up 8
G0 X125 Y170 Z25 F5000
G0 Z10 F5000
M106
G0 Z30 F5000
;Puck Refill 8
G0 E-75 F10000
G0 E10 F10000
G0 E-75 F10000
G0 E10 F10000
G0 E-100 F10000
;Dip in resin 8
G0 X50 Y173 Z35 F5000.0  ;Move to pos
G0 Z10 F5000.0  ;Move down
G0 Z35.0F5000.0   ;Move up
;Move to place location 8
G0 X115.254 Y74.226 Z10.0 F5000.0  ;Move Resin extruder to pos
G0 X115.254 Y74.226 Z0.0 F5000.0   ;Lower Resin extruder at pos
M107	              ;Turn vacuum off
G0 X115.254 Y74.226 Z10.0 F5000.0  ;Raise back up Resin extruder at pos
;Pick up 9
G0 X125 Y170 Z25 F5000
G0 Z10 F5000
M106
G0 Z30 F5000
;Puck Refill 9
G0 E-75 F10000
G0 E10 F10000
G0 E-75 F10000
G0 E10 F10000
G0 E-100 F10000
;Dip in resin 9
G0 X50 Y173 Z35 F5000.0  ;Move to pos
G0 Z10 F5000.0  ;Move down
G0 Z35.0F5000.0   ;Move up
;Move to place location 9
G0 X120.37 Y74.226 Z10.0 F5000.0  ;Move Resin extruder to pos
G0 X120.37 Y74.226 Z0.0 F5000.0   ;Lower Resin extruder at pos
M107	              ;Turn vacuum off
G0 X120.37 Y74.226 Z10.0 F5000.0  ;Raise back up Resin extruder at pos
;Pick up 10
G0 X125 Y170 Z25 F5000
G0 Z10 F5000
M106
G0 Z30 F5000
;Puck Refill 10
G0 E-75 F10000
G0 E10 F10000
G0 E-75 F10000
G0 E10 F10000
G0 E-100 F10000
;Dip in resin 10
G0 X50 Y173 Z35 F5000.0  ;Move to pos
G0 Z10 F5000.0  ;Move down
G0 Z35.0F5000.0   ;Move up
;Move to place location 10
G0 X120.087 Y69.146 Z10.0 F5000.0  ;Move Resin extruder to pos
G0 X120.087 Y69.146 Z0.0 F5000.0   ;Lower Resin extruder at pos
M107	              ;Turn vacuum off
G0 X120.087 Y69.146 Z10.0 F5000.0  ;Raise back up Resin extruder at pos
;Pick up 11
G0 X125 Y170 Z25 F5000
G0 Z10 F5000
M106
G0 Z30 F5000
;Puck Refill 11
G0 E-75 F10000
G0 E10 F10000
G0 E-75 F10000
G0 E10 F10000
G0 E-100 F10000
;Dip in resin 11
G0 X50 Y173 Z35 F5000.0  ;Move to pos
G0 Z10 F5000.0  ;Move down
G0 Z35.0F5000.0   ;Move up
;Move to place location 11
G0 X119.241 Y64.136 Z10.0 F5000.0  ;Move Resin extruder to pos
G0 X119.241 Y64.136 Z0.0 F5000.0   ;Lower Resin extruder at pos
M107	              ;Turn vacuum off
G0 X119.241 Y64.136 Z10.0 F5000.0  ;Raise back up Resin extruder at pos
;Pick up 12
G0 X125 Y170 Z25 F5000
G0 Z10 F5000
M106
G0 Z30 F5000
;Puck Refill 12
G0 E-75 F10000
G0 E10 F10000
G0 E-75 F10000
G0 E10 F10000
G0 E-100 F10000
;Dip in resin 12
G0 X50 Y173 Z35 F5000.0  ;Move to pos
G0 Z10 F5000.0  ;Move down
G0 Z35.0F5000.0   ;Move up
;Move to place location 12
G0 X117.865 Y59.268 Z10.0 F5000.0  ;Move Resin extruder to pos
G0 X117.865 Y59.268 Z0.0 F5000.0   ;Lower Resin extruder at pos
M107	              ;Turn vacuum off
G0 X117.865 Y59.268 Z10.0 F5000.0  ;Raise back up Resin extruder at pos
;Pick up 13
G0 X125 Y170 Z25 F5000
G0 Z10 F5000
M106
G0 Z30 F5000
;Puck Refill 13
G0 E-75 F10000
G0 E10 F10000
G0 E-75 F10000
G0 E10 F10000
G0 E-100 F10000
;Dip in resin 13
G0 X50 Y173 Z35 F5000.0  ;Move to pos
G0 Z10 F5000.0  ;Move down
G0 Z35.0F5000.0   ;Move up
;Move to place location 13
G0 X115.96 Y54.54 Z10.0 F5000.0  ;Move Resin extruder to pos
G0 X115.96 Y54.54 Z0.0 F5000.0   ;Lower Resin extruder at pos
M107	              ;Turn vacuum off
G0 X115.96 Y54.54 Z10.0 F5000.0  ;Raise back up Resin extruder at pos
;Pick up 14
G0 X125 Y170 Z25 F5000
G0 Z10 F5000
M106
G0 Z30 F5000
;Puck Refill 14
G0 E-75 F10000
G0 E10 F10000
G0 E-75 F10000
G0 E10 F10000
G0 E-100 F10000
;Dip in resin 14
G0 X50 Y173 Z35 F5000.0  ;Move to pos
G0 Z10 F5000.0  ;Move down
G0 Z35.0F5000.0   ;Move up
;Move to place location 14
G0 X113.526 Y50.06 Z10.0 F5000.0  ;Move Resin extruder to pos
G0 X113.526 Y50.06 Z0.0 F5000.0   ;Lower Resin extruder at pos
M107	              ;Turn vacuum off
G0 X113.526 Y50.06 Z10.0 F5000.0  ;Raise back up Resin extruder at pos
;Pick up 15
G0 X125 Y170 Z25 F5000
G0 Z10 F5000
M106
G0 Z30 F5000
;Puck Refill 15
G0 E-75 F10000
G0 E10 F10000
G0 E-75 F10000
G0 E10 F10000
G0 E-100 F10000
;Dip in resin 15
G0 X50 Y173 Z35 F5000.0  ;Move to pos
G0 Z10 F5000.0  ;Move down
G0 Z35.0F5000.0   ;Move up
;Move to place location 15
G0 X110.633 Y45.897 Z10.0 F5000.0  ;Move Resin extruder to pos
G0 X110.633 Y45.897 Z0.0 F5000.0   ;Lower Resin extruder at pos
M107	              ;Turn vacuum off
G0 X110.633 Y45.897 Z10.0 F5000.0  ;Raise back up Resin extruder at pos
;Pick up 16
G0 X125 Y170 Z25 F5000
G0 Z10 F5000
M106
G0 Z30 F5000
;Puck Refill 16
G0 E-75 F10000
G0 E10 F10000
G0 E-75 F10000
G0 E10 F10000
G0 E-100 F10000
;Dip in resin 16
G0 X50 Y173 Z35 F5000.0  ;Move to pos
G0 Z10 F5000.0  ;Move down
G0 Z35.0F5000.0   ;Move up
;Move to place location 16
G0 X107.317 Y42.052 Z10.0 F5000.0  ;Move Resin extruder to pos
G0 X107.317 Y42.052 Z0.0 F5000.0   ;Lower Resin extruder at pos
M107	              ;Turn vacuum off
G0 X107.317 Y42.052 Z10.0 F5000.0  ;Raise back up Resin extruder at pos
;Pick up 17
G0 X125 Y170 Z25 F5000
G0 Z10 F5000
M106
G0 Z30 F5000
;Puck Refill 17
G0 E-75 F10000
G0 E10 F10000
G0 E-75 F10000
G0 E10 F10000
G0 E-100 F10000
;Dip in resin 17
G0 X50 Y173 Z35 F5000.0  ;Move to pos
G0 Z10 F5000.0  ;Move down
G0 Z35.0F5000.0   ;Move up
;Move to place location 17
G0 X103.577 Y38.63 Z10.0 F5000.0  ;Move Resin extruder to pos
G0 X103.577 Y38.63 Z0.0 F5000.0   ;Lower Resin extruder at pos
M107	              ;Turn vacuum off
G0 X103.577 Y38.63 Z10.0 F5000.0  ;Raise back up Resin extruder at pos
;Pick up 18
G0 X125 Y170 Z25 F5000
G0 Z10 F5000
M106
G0 Z30 F5000
;Puck Refill 18
G0 E-75 F10000
G0 E10 F10000
G0 E-75 F10000
G0 E10 F10000
G0 E-100 F10000
;Dip in resin 18
G0 X50 Y173 Z35 F5000.0  ;Move to pos
G0 Z10 F5000.0  ;Move down
G0 Z35.0F5000.0   ;Move up
;Move to place location 18
G0 X99.485 Y35.631 Z10.0 F5000.0  ;Move Resin extruder to pos
G0 X99.485 Y35.631 Z0.0 F5000.0   ;Lower Resin extruder at pos
M107	              ;Turn vacuum off
G0 X99.485 Y35.631 Z10.0 F5000.0  ;Raise back up Resin extruder at pos
;Pick up 19
G0 X125 Y170 Z25 F5000
G0 Z10 F5000
M106
G0 Z30 F5000
;Puck Refill 19
G0 E-75 F10000
G0 E10 F10000
G0 E-75 F10000
G0 E10 F10000
G0 E-100 F10000
;Dip in resin 19
G0 X50 Y173 Z35 F5000.0  ;Move to pos
G0 Z10 F5000.0  ;Move down
G0 Z35.0F5000.0   ;Move up
;Move to place location 19
G0 X95.075 Y33.091 Z10.0 F5000.0  ;Move Resin extruder to pos
G0 X95.075 Y33.091 Z0.0 F5000.0   ;Lower Resin extruder at pos
M107	              ;Turn vacuum off
G0 X95.075 Y33.091 Z10.0 F5000.0  ;Raise back up Resin extruder at pos
;Pick up 20
G0 X125 Y170 Z25 F5000
G0 Z10 F5000
M106
G0 Z30 F5000
;Puck Refill 20
G0 E-75 F10000
G0 E10 F10000
G0 E-75 F10000
G0 E10 F10000
G0 E-100 F10000
;Dip in resin 20
G0 X50 Y173 Z35 F5000.0  ;Move to pos
G0 Z10 F5000.0  ;Move down
G0 Z35.0F5000.0   ;Move up
;Move to place location 20
G0 X90.418 Y31.045 Z10.0 F5000.0  ;Move Resin extruder to pos
G0 X90.418 Y31.045 Z0.0 F5000.0   ;Lower Resin extruder at pos
M107	              ;Turn vacuum off
G0 X90.418 Y31.045 Z10.0 F5000.0  ;Raise back up Resin extruder at pos
;Pick up 21
G0 X125 Y170 Z25 F5000
G0 Z10 F5000
M106
G0 Z30 F5000
;Puck Refill 21
G0 E-75 F10000
G0 E10 F10000
G0 E-75 F10000
G0 E10 F10000
G0 E-100 F10000
;Dip in resin 21
G0 X50 Y173 Z35 F5000.0  ;Move to pos
G0 Z10 F5000.0  ;Move down
G0 Z35.0F5000.0   ;Move up
;Move to place location 21
G0 X85.55 Y29.528 Z10.0 F5000.0  ;Move Resin extruder to pos
G0 X85.55 Y29.528 Z0.0 F5000.0   ;Lower Resin extruder at pos
M107	              ;Turn vacuum off
G0 X85.55 Y29.528 Z10.0 F5000.0  ;Raise back up Resin extruder at pos
;Pick up 22
G0 X125 Y170 Z25 F5000
G0 Z10 F5000
M106
G0 Z30 F5000
;Puck Refill 22
G0 E-75 F10000
G0 E10 F10000
G0 E-75 F10000
G0 E10 F10000
G0 E-100 F10000
;Dip in resin 22
G0 X50 Y173 Z35 F5000.0  ;Move to pos
G0 Z10 F5000.0  ;Move down
G0 Z35.0F5000.0   ;Move up
;Move to place location 22
G0 X80.576 Y28.54 Z10.0 F5000.0  ;Move Resin extruder to pos
G0 X80.576 Y28.54 Z0.0 F5000.0   ;Lower Resin extruder at pos
M107	              ;Turn vacuum off
G0 X80.576 Y28.54 Z10.0 F5000.0  ;Raise back up Resin extruder at pos
;Pick up 23
G0 X125 Y170 Z25 F5000
G0 Z10 F5000
M106
G0 Z30 F5000
;Puck Refill 23
G0 E-75 F10000
G0 E10 F10000
G0 E-75 F10000
G0 E10 F10000
G0 E-100 F10000
;Dip in resin 23
G0 X50 Y173 Z35 F5000.0  ;Move to pos
G0 Z10 F5000.0  ;Move down
G0 Z35.0F5000.0   ;Move up
;Move to place location 23
G0 X75.496 Y28.117 Z10.0 F5000.0  ;Move Resin extruder to pos
G0 X75.496 Y28.117 Z0.0 F5000.0   ;Lower Resin extruder at pos
M107	              ;Turn vacuum off
G0 X75.496 Y28.117 Z10.0 F5000.0  ;Raise back up Resin extruder at pos
;Pick up 24
G0 X125 Y170 Z25 F5000
G0 Z10 F5000
M106
G0 Z30 F5000
;Puck Refill 24
G0 E-75 F10000
G0 E10 F10000
G0 E-75 F10000
G0 E10 F10000
G0 E-100 F10000
;Dip in resin 24
G0 X50 Y173 Z35 F5000.0  ;Move to pos
G0 Z10 F5000.0  ;Move down
G0 Z35.0F5000.0   ;Move up
;Move to place location 24
G0 X70.416 Y28.258 Z10.0 F5000.0  ;Move Resin extruder to pos
G0 X70.416 Y28.258 Z0.0 F5000.0   ;Lower Resin extruder at pos
M107	              ;Turn vacuum off
G0 X70.416 Y28.258 Z10.0 F5000.0  ;Raise back up Resin extruder at pos
;Pick up 25
G0 X125 Y170 Z25 F5000
G0 Z10 F5000
M106
G0 Z30 F5000
;Puck Refill 25
G0 E-75 F10000
G0 E10 F10000
G0 E-75 F10000
G0 E10 F10000
G0 E-100 F10000
;Dip in resin 25
G0 X50 Y173 Z35 F5000.0  ;Move to pos
G0 Z10 F5000.0  ;Move down
G0 Z35.0F5000.0   ;Move up
;Move to place location 25
G0 X65.406 Y28.964 Z10.0 F5000.0  ;Move Resin extruder to pos
G0 X65.406 Y28.964 Z0.0 F5000.0   ;Lower Resin extruder at pos
M107	              ;Turn vacuum off
G0 X65.406 Y28.964 Z10.0 F5000.0  ;Raise back up Resin extruder at pos
;Pick up 26
G0 X125 Y170 Z25 F5000
G0 Z10 F5000
M106
G0 Z30 F5000
;Puck Refill 26
G0 E-75 F10000
G0 E10 F10000
G0 E-75 F10000
G0 E10 F10000
G0 E-100 F10000
;Dip in resin 26
G0 X50 Y173 Z35 F5000.0  ;Move to pos
G0 Z10 F5000.0  ;Move down
G0 Z35.0F5000.0   ;Move up
;Move to place location 26
G0 X60.467 Y30.198 Z10.0 F5000.0  ;Move Resin extruder to pos
G0 X60.467 Y30.198 Z0.0 F5000.0   ;Lower Resin extruder at pos
M107	              ;Turn vacuum off
G0 X60.467 Y30.198 Z10.0 F5000.0  ;Raise back up Resin extruder at pos
;Pick up 27
G0 X125 Y170 Z25 F5000
G0 Z10 F5000
M106
G0 Z30 F5000
;Puck Refill 27
G0 E-75 F10000
G0 E10 F10000
G0 E-75 F10000
G0 E10 F10000
G0 E-100 F10000
;Dip in resin 27
G0 X50 Y173 Z35 F5000.0  ;Move to pos
G0 Z10 F5000.0  ;Move down
G0 Z35.0F5000.0   ;Move up
;Move to place location 27
G0 X55.705 Y31.997 Z10.0 F5000.0  ;Move Resin extruder to pos
G0 X55.705 Y31.997 Z0.0 F5000.0   ;Lower Resin extruder at pos
M107	              ;Turn vacuum off
G0 X55.705 Y31.997 Z10.0 F5000.0  ;Raise back up Resin extruder at pos
;Pick up 28
G0 X125 Y170 Z25 F5000
G0 Z10 F5000
M106
G0 Z30 F5000
;Puck Refill 28
G0 E-75 F10000
G0 E10 F10000
G0 E-75 F10000
G0 E10 F10000
G0 E-100 F10000
;Dip in resin 28
G0 X50 Y173 Z35 F5000.0  ;Move to pos
G0 Z10 F5000.0  ;Move down
G0 Z35.0F5000.0   ;Move up
;Move to place location 28
G0 X51.189 Y34.291 Z10.0 F5000.0  ;Move Resin extruder to pos
G0 X51.189 Y34.291 Z0.0 F5000.0   ;Lower Resin extruder at pos
M107	              ;Turn vacuum off
G0 X51.189 Y34.291 Z10.0 F5000.0  ;Raise back up Resin extruder at pos
;Pick up 29
G0 X125 Y170 Z25 F5000
G0 Z10 F5000
M106
G0 Z30 F5000
;Puck Refill 29
G0 E-75 F10000
G0 E10 F10000
G0 E-75 F10000
G0 E10 F10000
G0 E-100 F10000
;Dip in resin 29
G0 X50 Y173 Z35 F5000.0  ;Move to pos
G0 Z10 F5000.0  ;Move down
G0 Z35.0F5000.0   ;Move up
;Move to place location 29
G0 X46.92 Y37.078 Z10.0 F5000.0  ;Move Resin extruder to pos
G0 X46.92 Y37.078 Z0.0 F5000.0   ;Lower Resin extruder at pos
M107	              ;Turn vacuum off
G0 X46.92 Y37.078 Z10.0 F5000.0  ;Raise back up Resin extruder at pos
;Pick up 30
G0 X125 Y170 Z25 F5000
G0 Z10 F5000
M106
G0 Z30 F5000
;Puck Refill 30
G0 E-75 F10000
G0 E10 F10000
G0 E-75 F10000
G0 E10 F10000
G0 E-100 F10000
;Dip in resin 30
G0 X50 Y173 Z35 F5000.0  ;Move to pos
G0 Z10 F5000.0  ;Move down
G0 Z35.0F5000.0   ;Move up
;Move to place location 30
G0 X43.004 Y40.288 Z10.0 F5000.0  ;Move Resin extruder to pos
G0 X43.004 Y40.288 Z0.0 F5000.0   ;Lower Resin extruder at pos
M107	              ;Turn vacuum off
G0 X43.004 Y40.288 Z10.0 F5000.0  ;Raise back up Resin extruder at pos
;Pick up 31
G0 X125 Y170 Z25 F5000
G0 Z10 F5000
M106
G0 Z30 F5000
;Puck Refill 31
G0 E-75 F10000
G0 E10 F10000
G0 E-75 F10000
G0 E10 F10000
G0 E-100 F10000
;Dip in resin 31
G0 X50 Y173 Z35 F5000.0  ;Move to pos
G0 Z10 F5000.0  ;Move down
G0 Z35.0F5000.0   ;Move up
;Move to place location 31
G0 X39.441 Y43.957 Z10.0 F5000.0  ;Move Resin extruder to pos
G0 X39.441 Y43.957 Z0.0 F5000.0   ;Lower Resin extruder at pos
M107	              ;Turn vacuum off
G0 X39.441 Y43.957 Z10.0 F5000.0  ;Raise back up Resin extruder at pos
;Pick up 32
G0 X125 Y170 Z25 F5000
G0 Z10 F5000
M106
G0 Z30 F5000
;Puck Refill 32
G0 E-75 F10000
G0 E10 F10000
G0 E-75 F10000
G0 E10 F10000
G0 E-100 F10000
;Dip in resin 32
G0 X50 Y173 Z35 F5000.0  ;Move to pos
G0 Z10 F5000.0  ;Move down
G0 Z35.0F5000.0   ;Move up
;Move to place location 32
G0 X36.337 Y47.943 Z10.0 F5000.0  ;Move Resin extruder to pos
G0 X36.337 Y47.943 Z0.0 F5000.0   ;Lower Resin extruder at pos
M107	              ;Turn vacuum off
G0 X36.337 Y47.943 Z10.0 F5000.0  ;Raise back up Resin extruder at pos
;Pick up 33
G0 X125 Y170 Z25 F5000
G0 Z10 F5000
M106
G0 Z30 F5000
;Puck Refill 33
G0 E-75 F10000
G0 E10 F10000
G0 E-75 F10000
G0 E10 F10000
G0 E-100 F10000
;Dip in resin 33
G0 X50 Y173 Z35 F5000.0  ;Move to pos
G0 Z10 F5000.0  ;Move down
G0 Z35.0F5000.0   ;Move up
;Move to place location 33
G0 X33.656 Y52.283 Z10.0 F5000.0  ;Move Resin extruder to pos
G0 X33.656 Y52.283 Z0.0 F5000.0   ;Lower Resin extruder at pos
M107	              ;Turn vacuum off
G0 X33.656 Y52.283 Z10.0 F5000.0  ;Raise back up Resin extruder at pos
;Pick up 34
G0 X125 Y170 Z25 F5000
G0 Z10 F5000
M106
G0 Z30 F5000
;Puck Refill 34
G0 E-75 F10000
G0 E10 F10000
G0 E-75 F10000
G0 E10 F10000
G0 E-100 F10000
;Dip in resin 34
G0 X50 Y173 Z35 F5000.0  ;Move to pos
G0 Z10 F5000.0  ;Move down
G0 Z35.0F5000.0   ;Move up
;Move to place location 34
G0 X31.504 Y56.869 Z10.0 F5000.0  ;Move Resin extruder to pos
G0 X31.504 Y56.869 Z0.0 F5000.0   ;Lower Resin extruder at pos
M107	              ;Turn vacuum off
G0 X31.504 Y56.869 Z10.0 F5000.0  ;Raise back up Resin extruder at pos
;Pick up 35
G0 X125 Y170 Z25 F5000
G0 Z10 F5000
M106
G0 Z30 F5000
;Puck Refill 35
G0 E-75 F10000
G0 E10 F10000
G0 E-75 F10000
G0 E10 F10000
G0 E-100 F10000
;Dip in resin 35
G0 X50 Y173 Z35 F5000.0  ;Move to pos
G0 Z10 F5000.0  ;Move down
G0 Z35.0F5000.0   ;Move up
;Move to place location 35
G0 X29.845 Y61.667 Z10.0 F5000.0  ;Move Resin extruder to pos
G0 X29.845 Y61.667 Z0.0 F5000.0   ;Lower Resin extruder at pos
M107	              ;Turn vacuum off
G0 X29.845 Y61.667 Z10.0 F5000.0  ;Raise back up Resin extruder at pos
;Pick up 36
G0 X125 Y170 Z25 F5000
G0 Z10 F5000
M106
G0 Z30 F5000
;Puck Refill 36
G0 E-75 F10000
G0 E10 F10000
G0 E-75 F10000
G0 E10 F10000
G0 E-100 F10000
;Dip in resin 36
G0 X50 Y173 Z35 F5000.0  ;Move to pos
G0 Z10 F5000.0  ;Move down
G0 Z35.0F5000.0   ;Move up
;Move to place location 36
G0 X28.752 Y66.641 Z10.0 F5000.0  ;Move Resin extruder to pos
G0 X28.752 Y66.641 Z0.0 F5000.0   ;Lower Resin extruder at pos
M107	              ;Turn vacuum off
G0 X28.752 Y66.641 Z10.0 F5000.0  ;Raise back up Resin extruder at pos
;Pick up 37
G0 X125 Y170 Z25 F5000
G0 Z10 F5000
M106
G0 Z30 F5000
;Puck Refill 37
G0 E-75 F10000
G0 E10 F10000
G0 E-75 F10000
G0 E10 F10000
G0 E-100 F10000
;Dip in resin 37
G0 X50 Y173 Z35 F5000.0  ;Move to pos
G0 Z10 F5000.0  ;Move down
G0 Z35.0F5000.0   ;Move up
;Move to place location 37
G0 X28.187 Y71.686 Z10.0 F5000.0  ;Move Resin extruder to pos
G0 X28.187 Y71.686 Z0.0 F5000.0   ;Lower Resin extruder at pos
M107	              ;Turn vacuum off
G0 X28.187 Y71.686 Z10.0 F5000.0  ;Raise back up Resin extruder at pos
;Pick up 38
G0 X125 Y170 Z25 F5000
G0 Z10 F5000
M106
G0 Z30 F5000
;Puck Refill 38
G0 E-75 F10000
G0 E10 F10000
G0 E-75 F10000
G0 E10 F10000
G0 E-100 F10000
;Dip in resin 38
G0 X50 Y173 Z35 F5000.0  ;Move to pos
G0 Z10 F5000.0  ;Move down
G0 Z35.0F5000.0   ;Move up
;Move to place location 38
G0 X28.187 Y76.766 Z10.0 F5000.0  ;Move Resin extruder to pos
G0 X28.187 Y76.766 Z0.0 F5000.0   ;Lower Resin extruder at pos
M107	              ;Turn vacuum off
G0 X28.187 Y76.766 Z10.0 F5000.0  ;Raise back up Resin extruder at pos
;Pick up 39
G0 X125 Y170 Z25 F5000
G0 Z10 F5000
M106
G0 Z30 F5000
;Puck Refill 39
G0 E-75 F10000
G0 E10 F10000
G0 E-75 F10000
G0 E10 F10000
G0 E-100 F10000
;Dip in resin 39
G0 X50 Y173 Z35 F5000.0  ;Move to pos
G0 Z10 F5000.0  ;Move down
G0 Z35.0F5000.0   ;Move up
;Move to place location 39
G0 X28.752 Y81.81 Z10.0 F5000.0  ;Move Resin extruder to pos
G0 X28.752 Y81.81 Z0.0 F5000.0   ;Lower Resin extruder at pos
M107	              ;Turn vacuum off
G0 X28.752 Y81.81 Z10.0 F5000.0  ;Raise back up Resin extruder at pos
;Pick up 40
G0 X125 Y170 Z25 F5000
G0 Z10 F5000
M106
G0 Z30 F5000
;Puck Refill 40
G0 E-75 F10000
G0 E10 F10000
G0 E-75 F10000
G0 E10 F10000
G0 E-100 F10000
;Dip in resin 40
G0 X50 Y173 Z35 F5000.0  ;Move to pos
G0 Z10 F5000.0  ;Move down
G0 Z35.0F5000.0   ;Move up
;Move to place location 40
G0 X29.845 Y86.785 Z10.0 F5000.0  ;Move Resin extruder to pos
G0 X29.845 Y86.785 Z0.0 F5000.0   ;Lower Resin extruder at pos
M107	              ;Turn vacuum off
G0 X29.845 Y86.785 Z10.0 F5000.0  ;Raise back up Resin extruder at pos
;Pick up 41
G0 X125 Y170 Z25 F5000
G0 Z10 F5000
M106
G0 Z30 F5000
;Puck Refill 41
G0 E-75 F10000
G0 E10 F10000
G0 E-75 F10000
G0 E10 F10000
G0 E-100 F10000
;Dip in resin 41
G0 X50 Y173 Z35 F5000.0  ;Move to pos
G0 Z10 F5000.0  ;Move down
G0 Z35.0F5000.0   ;Move up
;Move to place location 41
G0 X31.504 Y91.583 Z10.0 F5000.0  ;Move Resin extruder to pos
G0 X31.504 Y91.583 Z0.0 F5000.0   ;Lower Resin extruder at pos
M107	              ;Turn vacuum off
G0 X31.504 Y91.583 Z10.0 F5000.0  ;Raise back up Resin extruder at pos
;Pick up 42
G0 X125 Y170 Z25 F5000
G0 Z10 F5000
M106
G0 Z30 F5000
;Puck Refill 42
G0 E-75 F10000
G0 E10 F10000
G0 E-75 F10000
G0 E10 F10000
G0 E-100 F10000
;Dip in resin 42
G0 X50 Y173 Z35 F5000.0  ;Move to pos
G0 Z10 F5000.0  ;Move down
G0 Z35.0F5000.0   ;Move up
;Move to place location 42
G0 X33.691 Y96.204 Z10.0 F5000.0  ;Move Resin extruder to pos
G0 X33.691 Y96.204 Z0.0 F5000.0   ;Lower Resin extruder at pos
M107	              ;Turn vacuum off
G0 X33.691 Y96.204 Z10.0 F5000.0  ;Raise back up Resin extruder at pos
;Pick up 43
G0 X125 Y170 Z25 F5000
G0 Z10 F5000
M106
G0 Z30 F5000
;Puck Refill 43
G0 E-75 F10000
G0 E10 F10000
G0 E-75 F10000
G0 E10 F10000
G0 E-100 F10000
;Dip in resin 43
G0 X50 Y173 Z35 F5000.0  ;Move to pos
G0 Z10 F5000.0  ;Move down
G0 Z35.0F5000.0   ;Move up
;Move to place location 43
G0 X36.337 Y100.508 Z10.0 F5000.0  ;Move Resin extruder to pos
G0 X36.337 Y100.508 Z0.0 F5000.0   ;Lower Resin extruder at pos
M107	              ;Turn vacuum off
G0 X36.337 Y100.508 Z10.0 F5000.0  ;Raise back up Resin extruder at pos
;Pick up 44
G0 X125 Y170 Z25 F5000
G0 Z10 F5000
M106
G0 Z30 F5000
;Puck Refill 44
G0 E-75 F10000
G0 E10 F10000
G0 E-75 F10000
G0 E10 F10000
G0 E-100 F10000
;Dip in resin 44
G0 X50 Y173 Z35 F5000.0  ;Move to pos
G0 Z10 F5000.0  ;Move down
G0 Z35.0F5000.0   ;Move up
;Move to place location 44
G0 X39.476 Y104.53 Z10.0 F5000.0  ;Move Resin extruder to pos
G0 X39.476 Y104.53 Z0.0 F5000.0   ;Lower Resin extruder at pos
M107	              ;Turn vacuum off
G0 X39.476 Y104.53 Z10.0 F5000.0  ;Raise back up Resin extruder at pos
;Pick up 45
G0 X125 Y170 Z25 F5000
G0 Z10 F5000
M106
G0 Z30 F5000
;Puck Refill 45
G0 E-75 F10000
G0 E10 F10000
G0 E-75 F10000
G0 E10 F10000
G0 E-100 F10000
;Dip in resin 45
G0 X50 Y173 Z35 F5000.0  ;Move to pos
G0 Z10 F5000.0  ;Move down
G0 Z35.0F5000.0   ;Move up
;Move to place location 45
G0 X43.004 Y108.163 Z10.0 F5000.0  ;Move Resin extruder to pos
G0 X43.004 Y108.163 Z0.0 F5000.0   ;Lower Resin extruder at pos
M107	              ;Turn vacuum off
G0 X43.004 Y108.163 Z10.0 F5000.0  ;Raise back up Resin extruder at pos
;Pick up 46
G0 X125 Y170 Z25 F5000
G0 Z10 F5000
M106
G0 Z30 F5000
;Puck Refill 46
G0 E-75 F10000
G0 E10 F10000
G0 E-75 F10000
G0 E10 F10000
G0 E-100 F10000
;Dip in resin 46
G0 X50 Y173 Z35 F5000.0  ;Move to pos
G0 Z10 F5000.0  ;Move down
G0 Z35.0F5000.0   ;Move up
;Move to place location 46
G0 X46.92 Y111.409 Z10.0 F5000.0  ;Move Resin extruder to pos
G0 X46.92 Y111.409 Z0.0 F5000.0   ;Lower Resin extruder at pos
M107	              ;Turn vacuum off
G0 X46.92 Y111.409 Z10.0 F5000.0  ;Raise back up Resin extruder at pos
;Pick up 47
G0 X125 Y170 Z25 F5000
G0 Z10 F5000
M106
G0 Z30 F5000
;Puck Refill 47
G0 E-75 F10000
G0 E10 F10000
G0 E-75 F10000
G0 E10 F10000
G0 E-100 F10000
;Dip in resin 47
G0 X50 Y173 Z35 F5000.0  ;Move to pos
G0 Z10 F5000.0  ;Move down
G0 Z35.0F5000.0   ;Move up
;Move to place location 47
G0 X51.189 Y114.196 Z10.0 F5000.0  ;Move Resin extruder to pos
G0 X51.189 Y114.196 Z0.0 F5000.0   ;Lower Resin extruder at pos
M107	              ;Turn vacuum off
G0 X51.189 Y114.196 Z10.0 F5000.0  ;Raise back up Resin extruder at pos
;Pick up 48
G0 X125 Y170 Z25 F5000
G0 Z10 F5000
M106
G0 Z30 F5000
;Puck Refill 48
G0 E-75 F10000
G0 E10 F10000
G0 E-75 F10000
G0 E10 F10000
G0 E-100 F10000
;Dip in resin 48
G0 X50 Y173 Z35 F5000.0  ;Move to pos
G0 Z10 F5000.0  ;Move down
G0 Z35.0F5000.0   ;Move up
;Move to place location 48
G0 X55.705 Y116.489 Z10.0 F5000.0  ;Move Resin extruder to pos
G0 X55.705 Y116.489 Z0.0 F5000.0   ;Lower Resin extruder at pos
M107	              ;Turn vacuum off
G0 X55.705 Y116.489 Z10.0 F5000.0  ;Raise back up Resin extruder at pos
;Pick up 49
G0 X125 Y170 Z25 F5000
G0 Z10 F5000
M106
G0 Z30 F5000
;Puck Refill 49
G0 E-75 F10000
G0 E10 F10000
G0 E-75 F10000
G0 E10 F10000
G0 E-100 F10000
;Dip in resin 49
G0 X50 Y173 Z35 F5000.0  ;Move to pos
G0 Z10 F5000.0  ;Move down
G0 Z35.0F5000.0   ;Move up
;Move to place location 49
G0 X60.467 Y118.253 Z10.0 F5000.0  ;Move Resin extruder to pos
G0 X60.467 Y118.253 Z0.0 F5000.0   ;Lower Resin extruder at pos
M107	              ;Turn vacuum off
G0 X60.467 Y118.253 Z10.0 F5000.0  ;Raise back up Resin extruder at pos
;Pick up 50
G0 X125 Y170 Z25 F5000
G0 Z10 F5000
M106
G0 Z30 F5000
;Puck Refill 50
G0 E-75 F10000
G0 E10 F10000
G0 E-75 F10000
G0 E10 F10000
G0 E-100 F10000
;Dip in resin 50
G0 X50 Y173 Z35 F5000.0  ;Move to pos
G0 Z10 F5000.0  ;Move down
G0 Z35.0F5000.0   ;Move up
;Move to place location 50
G0 X65.406 Y119.488 Z10.0 F5000.0  ;Move Resin extruder to pos
G0 X65.406 Y119.488 Z0.0 F5000.0   ;Lower Resin extruder at pos
M107	              ;Turn vacuum off
G0 X65.406 Y119.488 Z10.0 F5000.0  ;Raise back up Resin extruder at pos
;Pick up 51
G0 X125 Y170 Z25 F5000
G0 Z10 F5000
M106
G0 Z30 F5000
;Puck Refill 51
G0 E-75 F10000
G0 E10 F10000
G0 E-75 F10000
G0 E10 F10000
G0 E-100 F10000
;Dip in resin 51
G0 X50 Y173 Z35 F5000.0  ;Move to pos
G0 Z10 F5000.0  ;Move down
G0 Z35.0F5000.0   ;Move up
;Move to place location 51
G0 X70.451 Y120.193 Z10.0 F5000.0  ;Move Resin extruder to pos
G0 X70.451 Y120.193 Z0.0 F5000.0   ;Lower Resin extruder at pos
M107	              ;Turn vacuum off
G0 X70.451 Y120.193 Z10.0 F5000.0  ;Raise back up Resin extruder at pos
;Pick up 52
G0 X125 Y170 Z25 F5000
G0 Z10 F5000
M106
G0 Z30 F5000
;Puck Refill 52
G0 E-75 F10000
G0 E10 F10000
G0 E-75 F10000
G0 E10 F10000
G0 E-100 F10000
;Dip in resin 52
G0 X50 Y173 Z35 F5000.0  ;Move to pos
G0 Z10 F5000.0  ;Move down
G0 Z35.0F5000.0   ;Move up
;Move to place location 52
G0 X75.531 Y120.334 Z10.0 F5000.0  ;Move Resin extruder to pos
G0 X75.531 Y120.334 Z0.0 F5000.0   ;Lower Resin extruder at pos
M107	              ;Turn vacuum off
G0 X75.531 Y120.334 Z10.0 F5000.0  ;Raise back up Resin extruder at pos
;Pick up 53
G0 X125 Y170 Z25 F5000
G0 Z10 F5000
M106
G0 Z30 F5000
;Puck Refill 53
G0 E-75 F10000
G0 E10 F10000
G0 E-75 F10000
G0 E10 F10000
G0 E-100 F10000
;Dip in resin 53
G0 X50 Y173 Z35 F5000.0  ;Move to pos
G0 Z10 F5000.0  ;Move down
G0 Z35.0F5000.0   ;Move up
;Move to place location 53
G0 X80.576 Y119.911 Z10.0 F5000.0  ;Move Resin extruder to pos
G0 X80.576 Y119.911 Z0.0 F5000.0   ;Lower Resin extruder at pos
M107	              ;Turn vacuum off
G0 X80.576 Y119.911 Z10.0 F5000.0  ;Raise back up Resin extruder at pos
;Pick up 54
G0 X125 Y170 Z25 F5000
G0 Z10 F5000
M106
G0 Z30 F5000
;Puck Refill 54
G0 E-75 F10000
G0 E10 F10000
G0 E-75 F10000
G0 E10 F10000
G0 E-100 F10000
;Dip in resin 54
G0 X50 Y173 Z35 F5000.0  ;Move to pos
G0 Z10 F5000.0  ;Move down
G0 Z35.0F5000.0   ;Move up
;Move to place location 54
G0 X85.585 Y118.959 Z10.0 F5000.0  ;Move Resin extruder to pos
G0 X85.585 Y118.959 Z0.0 F5000.0   ;Lower Resin extruder at pos
M107	              ;Turn vacuum off
G0 X85.585 Y118.959 Z10.0 F5000.0  ;Raise back up Resin extruder at pos
;Pick up 55
G0 X125 Y170 Z25 F5000
G0 Z10 F5000
M106
G0 Z30 F5000
;Puck Refill 55
G0 E-75 F10000
G0 E10 F10000
G0 E-75 F10000
G0 E10 F10000
G0 E-100 F10000
;Dip in resin 55
G0 X50 Y173 Z35 F5000.0  ;Move to pos
G0 Z10 F5000.0  ;Move down
G0 Z35.0F5000.0   ;Move up
;Move to place location 55
G0 X90.418 Y117.442 Z10.0 F5000.0  ;Move Resin extruder to pos
G0 X90.418 Y117.442 Z0.0 F5000.0   ;Lower Resin extruder at pos
M107	              ;Turn vacuum off
G0 X90.418 Y117.442 Z10.0 F5000.0  ;Raise back up Resin extruder at pos
;Pick up 56
G0 X125 Y170 Z25 F5000
G0 Z10 F5000
M106
G0 Z30 F5000
;Puck Refill 56
G0 E-75 F10000
G0 E10 F10000
G0 E-75 F10000
G0 E10 F10000
G0 E-100 F10000
;Dip in resin 56
G0 X50 Y173 Z35 F5000.0  ;Move to pos
G0 Z10 F5000.0  ;Move down
G0 Z35.0F5000.0   ;Move up
;Move to place location 56
G0 X95.075 Y115.395 Z10.0 F5000.0  ;Move Resin extruder to pos
G0 X95.075 Y115.395 Z0.0 F5000.0   ;Lower Resin extruder at pos
M107	              ;Turn vacuum off
G0 X95.075 Y115.395 Z10.0 F5000.0  ;Raise back up Resin extruder at pos
;Pick up 57
G0 X125 Y170 Z25 F5000
G0 Z10 F5000
M106
G0 Z30 F5000
;Puck Refill 57
G0 E-75 F10000
G0 E10 F10000
G0 E-75 F10000
G0 E10 F10000
G0 E-100 F10000
;Dip in resin 57
G0 X50 Y173 Z35 F5000.0  ;Move to pos
G0 Z10 F5000.0  ;Move down
G0 Z35.0F5000.0   ;Move up
;Move to place location 57
G0 X99.485 Y112.855 Z10.0 F5000.0  ;Move Resin extruder to pos
G0 X99.485 Y112.855 Z0.0 F5000.0   ;Lower Resin extruder at pos
M107	              ;Turn vacuum off
G0 X99.485 Y112.855 Z10.0 F5000.0  ;Raise back up Resin extruder at pos
;Pick up 58
G0 X125 Y170 Z25 F5000
G0 Z10 F5000
M106
G0 Z30 F5000
;Puck Refill 58
G0 E-75 F10000
G0 E10 F10000
G0 E-75 F10000
G0 E10 F10000
G0 E-100 F10000
;Dip in resin 58
G0 X50 Y173 Z35 F5000.0  ;Move to pos
G0 Z10 F5000.0  ;Move down
G0 Z35.0F5000.0   ;Move up
;Move to place location 58
G0 X103.577 Y109.821 Z10.0 F5000.0  ;Move Resin extruder to pos
G0 X103.577 Y109.821 Z0.0 F5000.0   ;Lower Resin extruder at pos
M107	              ;Turn vacuum off
G0 X103.577 Y109.821 Z10.0 F5000.0  ;Raise back up Resin extruder at pos
;Pick up 59
G0 X125 Y170 Z25 F5000
G0 Z10 F5000
M106
G0 Z30 F5000
;Puck Refill 59
G0 E-75 F10000
G0 E10 F10000
G0 E-75 F10000
G0 E10 F10000
G0 E-100 F10000
;Dip in resin 59
G0 X50 Y173 Z35 F5000.0  ;Move to pos
G0 Z10 F5000.0  ;Move down
G0 Z35.0F5000.0   ;Move up
;Move to place location 59
G0 X107.317 Y106.399 Z10.0 F5000.0  ;Move Resin extruder to pos
G0 X107.317 Y106.399 Z0.0 F5000.0   ;Lower Resin extruder at pos
M107	              ;Turn vacuum off
G0 X107.317 Y106.399 Z10.0 F5000.0  ;Raise back up Resin extruder at pos
;Pick up 60
G0 X125 Y170 Z25 F5000
G0 Z10 F5000
M106
G0 Z30 F5000
;Puck Refill 60
G0 E-75 F10000
G0 E10 F10000
G0 E-75 F10000
G0 E10 F10000
G0 E-100 F10000
;Dip in resin 60
G0 X50 Y173 Z35 F5000.0  ;Move to pos
G0 Z10 F5000.0  ;Move down
G0 Z35.0F5000.0   ;Move up
;Move to place location 60
G0 X110.633 Y102.554 Z10.0 F5000.0  ;Move Resin extruder to pos
G0 X110.633 Y102.554 Z0.0 F5000.0   ;Lower Resin extruder at pos
M107	              ;Turn vacuum off
G0 X110.633 Y102.554 Z10.0 F5000.0  ;Raise back up Resin extruder at pos
;Pick up 61
G0 X125 Y170 Z25 F5000
G0 Z10 F5000
M106
G0 Z30 F5000
;Puck Refill 61
G0 E-75 F10000
G0 E10 F10000
G0 E-75 F10000
G0 E10 F10000
G0 E-100 F10000
;Dip in resin 61
G0 X50 Y173 Z35 F5000.0  ;Move to pos
G0 Z10 F5000.0  ;Move down
G0 Z35.0F5000.0   ;Move up
;Move to place location 61
G0 X113.526 Y98.391 Z10.0 F5000.0  ;Move Resin extruder to pos
G0 X113.526 Y98.391 Z0.0 F5000.0   ;Lower Resin extruder at pos
M107	              ;Turn vacuum off
G0 X113.526 Y98.391 Z10.0 F5000.0  ;Raise back up Resin extruder at pos
;Pick up 62
G0 X125 Y170 Z25 F5000
G0 Z10 F5000
M106
G0 Z30 F5000
;Puck Refill 62
G0 E-75 F10000
G0 E10 F10000
G0 E-75 F10000
G0 E10 F10000
G0 E-100 F10000
;Dip in resin 62
G0 X50 Y173 Z35 F5000.0  ;Move to pos
G0 Z10 F5000.0  ;Move down
G0 Z35.0F5000.0   ;Move up
;Move to place location 62
G0 X115.96 Y93.911 Z10.0 F5000.0  ;Move Resin extruder to pos
G0 X115.96 Y93.911 Z0.0 F5000.0   ;Lower Resin extruder at pos
M107	              ;Turn vacuum off
G0 X115.96 Y93.911 Z10.0 F5000.0  ;Raise back up Resin extruder at pos
;Pick up 63
G0 X125 Y170 Z25 F5000
G0 Z10 F5000
M106
G0 Z30 F5000
;Puck Refill 63
G0 E-75 F10000
G0 E10 F10000
G0 E-75 F10000
G0 E10 F10000
G0 E-100 F10000
;Dip in resin 63
G0 X50 Y173 Z35 F5000.0  ;Move to pos
G0 Z10 F5000.0  ;Move down
G0 Z35.0F5000.0   ;Move up
;Move to place location 63
G0 X117.865 Y89.184 Z10.0 F5000.0  ;Move Resin extruder to pos
G0 X117.865 Y89.184 Z0.0 F5000.0   ;Lower Resin extruder at pos
M107	              ;Turn vacuum off
G0 X117.865 Y89.184 Z10.0 F5000.0  ;Raise back up Resin extruder at pos
;Pick up 64
G0 X125 Y170 Z25 F5000
G0 Z10 F5000
M106
G0 Z30 F5000
;Puck Refill 64
G0 E-75 F10000
G0 E10 F10000
G0 E-75 F10000
G0 E10 F10000
G0 E-100 F10000
;Dip in resin 64
G0 X50 Y173 Z35 F5000.0  ;Move to pos
G0 Z10 F5000.0  ;Move down
G0 Z35.0F5000.0   ;Move up
;Move to place location 64
G0 X119.241 Y84.315 Z10.0 F5000.0  ;Move Resin extruder to pos
G0 X119.241 Y84.315 Z0.0 F5000.0   ;Lower Resin extruder at pos
M107	              ;Turn vacuum off
G0 X119.241 Y84.315 Z10.0 F5000.0  ;Raise back up Resin extruder at pos
;Pick up 65
G0 X125 Y170 Z25 F5000
G0 Z10 F5000
M106
G0 Z30 F5000
;Puck Refill 65
G0 E-75 F10000
G0 E10 F10000
G0 E-75 F10000
G0 E10 F10000
G0 E-100 F10000
;Dip in resin 65
G0 X50 Y173 Z35 F5000.0  ;Move to pos
G0 Z10 F5000.0  ;Move down
G0 Z35.0F5000.0   ;Move up
;Move to place location 65
G0 X120.087 Y79.306 Z10.0 F5000.0  ;Move Resin extruder to pos
G0 X120.087 Y79.306 Z0.0 F5000.0   ;Lower Resin extruder at pos
M107	              ;Turn vacuum off
G0 X120.087 Y79.306 Z10.0 F5000.0  ;Raise back up Resin extruder at pos
;Pick up 66
G0 X125 Y170 Z25 F5000
G0 Z10 F5000
M106
G0 Z30 F5000
;Puck Refill 66
G0 E-75 F10000
G0 E10 F10000
G0 E-75 F10000
G0 E10 F10000
G0 E-100 F10000
;Dip in resin 66
G0 X50 Y173 Z35 F5000.0  ;Move to pos
G0 Z10 F5000.0  ;Move down
G0 Z35.0F5000.0   ;Move up
;Move to place location 66
G0 X114.902 Y69.075 Z10.0 F5000.0  ;Move Resin extruder to pos
G0 X114.902 Y69.075 Z0.0 F5000.0   ;Lower Resin extruder at pos
M107	              ;Turn vacuum off
G0 X114.902 Y69.075 Z10.0 F5000.0  ;Raise back up Resin extruder at pos
;Pick up 67
G0 X125 Y170 Z25 F5000
G0 Z10 F5000
M106
G0 Z30 F5000
;Puck Refill 67
G0 E-75 F10000
G0 E10 F10000
G0 E-75 F10000
G0 E10 F10000
G0 E-100 F10000
;Dip in resin 67
G0 X50 Y173 Z35 F5000.0  ;Move to pos
G0 Z10 F5000.0  ;Move down
G0 Z35.0F5000.0   ;Move up
;Move to place location 67
G0 X113.949 Y64.03 Z10.0 F5000.0  ;Move Resin extruder to pos
G0 X113.949 Y64.03 Z0.0 F5000.0   ;Lower Resin extruder at pos
M107	              ;Turn vacuum off
G0 X113.949 Y64.03 Z10.0 F5000.0  ;Raise back up Resin extruder at pos
;Pick up 68
G0 X125 Y170 Z25 F5000
G0 Z10 F5000
M106
G0 Z30 F5000
;Puck Refill 68
G0 E-75 F10000
G0 E10 F10000
G0 E-75 F10000
G0 E10 F10000
G0 E-100 F10000
;Dip in resin 68
G0 X50 Y173 Z35 F5000.0  ;Move to pos
G0 Z10 F5000.0  ;Move down
G0 Z35.0F5000.0   ;Move up
;Move to place location 68
G0 X112.362 Y59.127 Z10.0 F5000.0  ;Move Resin extruder to pos
G0 X112.362 Y59.127 Z0.0 F5000.0   ;Lower Resin extruder at pos
M107	              ;Turn vacuum off
G0 X112.362 Y59.127 Z10.0 F5000.0  ;Raise back up Resin extruder at pos
;Pick up 69
G0 X125 Y170 Z25 F5000
G0 Z10 F5000
M106
G0 Z30 F5000
;Puck Refill 69
G0 E-75 F10000
G0 E10 F10000
G0 E-75 F10000
G0 E10 F10000
G0 E-100 F10000
;Dip in resin 69
G0 X50 Y173 Z35 F5000.0  ;Move to pos
G0 Z10 F5000.0  ;Move down
G0 Z35.0F5000.0   ;Move up
;Move to place location 69
G0 X110.174 Y54.47 Z10.0 F5000.0  ;Move Resin extruder to pos
G0 X110.174 Y54.47 Z0.0 F5000.0   ;Lower Resin extruder at pos
M107	              ;Turn vacuum off
G0 X110.174 Y54.47 Z10.0 F5000.0  ;Raise back up Resin extruder at pos
;Pick up 70
G0 X125 Y170 Z25 F5000
G0 Z10 F5000
M106
G0 Z30 F5000
;Puck Refill 70
G0 E-75 F10000
G0 E10 F10000
G0 E-75 F10000
G0 E10 F10000
G0 E-100 F10000
;Dip in resin 70
G0 X50 Y173 Z35 F5000.0  ;Move to pos
G0 Z10 F5000.0  ;Move down
G0 Z35.0F5000.0   ;Move up
;Move to place location 70
G0 X107.423 Y50.131 Z10.0 F5000.0  ;Move Resin extruder to pos
G0 X107.423 Y50.131 Z0.0 F5000.0   ;Lower Resin extruder at pos
M107	              ;Turn vacuum off
G0 X107.423 Y50.131 Z10.0 F5000.0  ;Raise back up Resin extruder at pos
;Pick up 71
G0 X125 Y170 Z25 F5000
G0 Z10 F5000
M106
G0 Z30 F5000
;Puck Refill 71
G0 E-75 F10000
G0 E10 F10000
G0 E-75 F10000
G0 E10 F10000
G0 E-100 F10000
;Dip in resin 71
G0 X50 Y173 Z35 F5000.0  ;Move to pos
G0 Z10 F5000.0  ;Move down
G0 Z35.0F5000.0   ;Move up
;Move to place location 71
G0 X104.142 Y46.179 Z10.0 F5000.0  ;Move Resin extruder to pos
G0 X104.142 Y46.179 Z0.0 F5000.0   ;Lower Resin extruder at pos
M107	              ;Turn vacuum off
G0 X104.142 Y46.179 Z10.0 F5000.0  ;Raise back up Resin extruder at pos
;Pick up 72
G0 X125 Y170 Z25 F5000
G0 Z10 F5000
M106
G0 Z30 F5000
;Puck Refill 72
G0 E-75 F10000
G0 E10 F10000
G0 E-75 F10000
G0 E10 F10000
G0 E-100 F10000
;Dip in resin 72
G0 X50 Y173 Z35 F5000.0  ;Move to pos
G0 Z10 F5000.0  ;Move down
G0 Z35.0F5000.0   ;Move up
;Move to place location 72
G0 X100.367 Y42.652 Z10.0 F5000.0  ;Move Resin extruder to pos
G0 X100.367 Y42.652 Z0.0 F5000.0   ;Lower Resin extruder at pos
M107	              ;Turn vacuum off
G0 X100.367 Y42.652 Z10.0 F5000.0  ;Raise back up Resin extruder at pos
;Pick up 73
G0 X125 Y170 Z25 F5000
G0 Z10 F5000
M106
G0 Z30 F5000
;Puck Refill 73
G0 E-75 F10000
G0 E10 F10000
G0 E-75 F10000
G0 E10 F10000
G0 E-100 F10000
;Dip in resin 73
G0 X50 Y173 Z35 F5000.0  ;Move to pos
G0 Z10 F5000.0  ;Move down
G0 Z35.0F5000.0   ;Move up
;Move to place location 73
G0 X96.204 Y39.618 Z10.0 F5000.0  ;Move Resin extruder to pos
G0 X96.204 Y39.618 Z0.0 F5000.0   ;Lower Resin extruder at pos
M107	              ;Turn vacuum off
G0 X96.204 Y39.618 Z10.0 F5000.0  ;Raise back up Resin extruder at pos
;Pick up 74
G0 X125 Y170 Z25 F5000
G0 Z10 F5000
M106
G0 Z30 F5000
;Puck Refill 74
G0 E-75 F10000
G0 E10 F10000
G0 E-75 F10000
G0 E10 F10000
G0 E-100 F10000
;Dip in resin 74
G0 X50 Y173 Z35 F5000.0  ;Move to pos
G0 Z10 F5000.0  ;Move down
G0 Z35.0F5000.0   ;Move up
;Move to place location 74
G0 X91.688 Y37.148 Z10.0 F5000.0  ;Move Resin extruder to pos
G0 X91.688 Y37.148 Z0.0 F5000.0   ;Lower Resin extruder at pos
M107	              ;Turn vacuum off
G0 X91.688 Y37.148 Z10.0 F5000.0  ;Raise back up Resin extruder at pos
;Pick up 75
G0 X125 Y170 Z25 F5000
G0 Z10 F5000
M106
G0 Z30 F5000
;Puck Refill 75
G0 E-75 F10000
G0 E10 F10000
G0 E-75 F10000
G0 E10 F10000
G0 E-100 F10000
;Dip in resin 75
G0 X50 Y173 Z35 F5000.0  ;Move to pos
G0 Z10 F5000.0  ;Move down
G0 Z35.0F5000.0   ;Move up
;Move to place location 75
G0 X86.926 Y35.243 Z10.0 F5000.0  ;Move Resin extruder to pos
G0 X86.926 Y35.243 Z0.0 F5000.0   ;Lower Resin extruder at pos
M107	              ;Turn vacuum off
G0 X86.926 Y35.243 Z10.0 F5000.0  ;Raise back up Resin extruder at pos
;Pick up 76
G0 X125 Y170 Z25 F5000
G0 Z10 F5000
M106
G0 Z30 F5000
;Puck Refill 76
G0 E-75 F10000
G0 E10 F10000
G0 E-75 F10000
G0 E10 F10000
G0 E-100 F10000
;Dip in resin 76
G0 X50 Y173 Z35 F5000.0  ;Move to pos
G0 Z10 F5000.0  ;Move down
G0 Z35.0F5000.0   ;Move up
;Move to place location 76
G0 X81.916 Y33.973 Z10.0 F5000.0  ;Move Resin extruder to pos
G0 X81.916 Y33.973 Z0.0 F5000.0   ;Lower Resin extruder at pos
M107	              ;Turn vacuum off
G0 X81.916 Y33.973 Z10.0 F5000.0  ;Raise back up Resin extruder at pos
;Pick up 77
G0 X125 Y170 Z25 F5000
G0 Z10 F5000
M106
G0 Z30 F5000
;Puck Refill 77
G0 E-75 F10000
G0 E10 F10000
G0 E-75 F10000
G0 E10 F10000
G0 E-100 F10000
;Dip in resin 77
G0 X50 Y173 Z35 F5000.0  ;Move to pos
G0 Z10 F5000.0  ;Move down
G0 Z35.0F5000.0   ;Move up
;Move to place location 77
G0 X76.801 Y33.303 Z10.0 F5000.0  ;Move Resin extruder to pos
G0 X76.801 Y33.303 Z0.0 F5000.0   ;Lower Resin extruder at pos
M107	              ;Turn vacuum off
G0 X76.801 Y33.303 Z10.0 F5000.0  ;Raise back up Resin extruder at pos
;Pick up 78
G0 X125 Y170 Z25 F5000
G0 Z10 F5000
M106
G0 Z30 F5000
;Puck Refill 78
G0 E-75 F10000
G0 E10 F10000
G0 E-75 F10000
G0 E10 F10000
G0 E-100 F10000
;Dip in resin 78
G0 X50 Y173 Z35 F5000.0  ;Move to pos
G0 Z10 F5000.0  ;Move down
G0 Z35.0F5000.0   ;Move up
;Move to place location 78
G0 X71.65 Y33.303 Z10.0 F5000.0  ;Move Resin extruder to pos
G0 X71.65 Y33.303 Z0.0 F5000.0   ;Lower Resin extruder at pos
M107	              ;Turn vacuum off
G0 X71.65 Y33.303 Z10.0 F5000.0  ;Raise back up Resin extruder at pos
;Pick up 79
G0 X125 Y170 Z25 F5000
G0 Z10 F5000
M106
G0 Z30 F5000
;Puck Refill 79
G0 E-75 F10000
G0 E10 F10000
G0 E-75 F10000
G0 E10 F10000
G0 E-100 F10000
;Dip in resin 79
G0 X50 Y173 Z35 F5000.0  ;Move to pos
G0 Z10 F5000.0  ;Move down
G0 Z35.0F5000.0   ;Move up
;Move to place location 79
G0 X66.57 Y33.973 Z10.0 F5000.0  ;Move Resin extruder to pos
G0 X66.57 Y33.973 Z0.0 F5000.0   ;Lower Resin extruder at pos
M107	              ;Turn vacuum off
G0 X66.57 Y33.973 Z10.0 F5000.0  ;Raise back up Resin extruder at pos
;Pick up 80
G0 X125 Y170 Z25 F5000
G0 Z10 F5000
M106
G0 Z30 F5000
;Puck Refill 80
G0 E-75 F10000
G0 E10 F10000
G0 E-75 F10000
G0 E10 F10000
G0 E-100 F10000
;Dip in resin 80
G0 X50 Y173 Z35 F5000.0  ;Move to pos
G0 Z10 F5000.0  ;Move down
G0 Z35.0F5000.0   ;Move up
;Move to place location 80
G0 X61.561 Y35.243 Z10.0 F5000.0  ;Move Resin extruder to pos
G0 X61.561 Y35.243 Z0.0 F5000.0   ;Lower Resin extruder at pos
M107	              ;Turn vacuum off
G0 X61.561 Y35.243 Z10.0 F5000.0  ;Raise back up Resin extruder at pos
;Pick up 81
G0 X125 Y170 Z25 F5000
G0 Z10 F5000
M106
G0 Z30 F5000
;Puck Refill 81
G0 E-75 F10000
G0 E10 F10000
G0 E-75 F10000
G0 E10 F10000
G0 E-100 F10000
;Dip in resin 81
G0 X50 Y173 Z35 F5000.0  ;Move to pos
G0 Z10 F5000.0  ;Move down
G0 Z35.0F5000.0   ;Move up
;Move to place location 81
G0 X56.798 Y37.148 Z10.0 F5000.0  ;Move Resin extruder to pos
G0 X56.798 Y37.148 Z0.0 F5000.0   ;Lower Resin extruder at pos
M107	              ;Turn vacuum off
G0 X56.798 Y37.148 Z10.0 F5000.0  ;Raise back up Resin extruder at pos
;Pick up 82
G0 X125 Y170 Z25 F5000
G0 Z10 F5000
M106
G0 Z30 F5000
;Puck Refill 82
G0 E-75 F10000
G0 E10 F10000
G0 E-75 F10000
G0 E10 F10000
G0 E-100 F10000
;Dip in resin 82
G0 X50 Y173 Z35 F5000.0  ;Move to pos
G0 Z10 F5000.0  ;Move down
G0 Z35.0F5000.0   ;Move up
;Move to place location 82
G0 X52.283 Y39.618 Z10.0 F5000.0  ;Move Resin extruder to pos
G0 X52.283 Y39.618 Z0.0 F5000.0   ;Lower Resin extruder at pos
M107	              ;Turn vacuum off
G0 X52.283 Y39.618 Z10.0 F5000.0  ;Raise back up Resin extruder at pos
;Pick up 83
G0 X125 Y170 Z25 F5000
G0 Z10 F5000
M106
G0 Z30 F5000
;Puck Refill 83
G0 E-75 F10000
G0 E10 F10000
G0 E-75 F10000
G0 E10 F10000
G0 E-100 F10000
;Dip in resin 83
G0 X50 Y173 Z35 F5000.0  ;Move to pos
G0 Z10 F5000.0  ;Move down
G0 Z35.0F5000.0   ;Move up
;Move to place location 83
G0 X48.12 Y42.652 Z10.0 F5000.0  ;Move Resin extruder to pos
G0 X48.12 Y42.652 Z0.0 F5000.0   ;Lower Resin extruder at pos
M107	              ;Turn vacuum off
G0 X48.12 Y42.652 Z10.0 F5000.0  ;Raise back up Resin extruder at pos
;Pick up 84
G0 X125 Y170 Z25 F5000
G0 Z10 F5000
M106
G0 Z30 F5000
;Puck Refill 84
G0 E-75 F10000
G0 E10 F10000
G0 E-75 F10000
G0 E10 F10000
G0 E-100 F10000
;Dip in resin 84
G0 X50 Y173 Z35 F5000.0  ;Move to pos
G0 Z10 F5000.0  ;Move down
G0 Z35.0F5000.0   ;Move up
;Move to place location 84
G0 X44.345 Y46.179 Z10.0 F5000.0  ;Move Resin extruder to pos
G0 X44.345 Y46.179 Z0.0 F5000.0   ;Lower Resin extruder at pos
M107	              ;Turn vacuum off
G0 X44.345 Y46.179 Z10.0 F5000.0  ;Raise back up Resin extruder at pos
;Pick up 85
G0 X125 Y170 Z25 F5000
G0 Z10 F5000
M106
G0 Z30 F5000
;Puck Refill 85
G0 E-75 F10000
G0 E10 F10000
G0 E-75 F10000
G0 E10 F10000
G0 E-100 F10000
;Dip in resin 85
G0 X50 Y173 Z35 F5000.0  ;Move to pos
G0 Z10 F5000.0  ;Move down
G0 Z35.0F5000.0   ;Move up
;Move to place location 85
G0 X41.064 Y50.131 Z10.0 F5000.0  ;Move Resin extruder to pos
G0 X41.064 Y50.131 Z0.0 F5000.0   ;Lower Resin extruder at pos
M107	              ;Turn vacuum off
G0 X41.064 Y50.131 Z10.0 F5000.0  ;Raise back up Resin extruder at pos
;Pick up 86
G0 X125 Y170 Z25 F5000
G0 Z10 F5000
M106
G0 Z30 F5000
;Puck Refill 86
G0 E-75 F10000
G0 E10 F10000
G0 E-75 F10000
G0 E10 F10000
G0 E-100 F10000
;Dip in resin 86
G0 X50 Y173 Z35 F5000.0  ;Move to pos
G0 Z10 F5000.0  ;Move down
G0 Z35.0F5000.0   ;Move up
;Move to place location 86
G0 X38.312 Y54.47 Z10.0 F5000.0  ;Move Resin extruder to pos
G0 X38.312 Y54.47 Z0.0 F5000.0   ;Lower Resin extruder at pos
M107	              ;Turn vacuum off
G0 X38.312 Y54.47 Z10.0 F5000.0  ;Raise back up Resin extruder at pos
;Pick up 87
G0 X125 Y170 Z25 F5000
G0 Z10 F5000
M106
G0 Z30 F5000
;Puck Refill 87
G0 E-75 F10000
G0 E10 F10000
G0 E-75 F10000
G0 E10 F10000
G0 E-100 F10000
;Dip in resin 87
G0 X50 Y173 Z35 F5000.0  ;Move to pos
G0 Z10 F5000.0  ;Move down
G0 Z35.0F5000.0   ;Move up
;Move to place location 87
G0 X36.125 Y59.127 Z10.0 F5000.0  ;Move Resin extruder to pos
G0 X36.125 Y59.127 Z0.0 F5000.0   ;Lower Resin extruder at pos
M107	              ;Turn vacuum off
G0 X36.125 Y59.127 Z10.0 F5000.0  ;Raise back up Resin extruder at pos
;Pick up 88
G0 X125 Y170 Z25 F5000
G0 Z10 F5000
M106
G0 Z30 F5000
;Puck Refill 88
G0 E-75 F10000
G0 E10 F10000
G0 E-75 F10000
G0 E10 F10000
G0 E-100 F10000
;Dip in resin 88
G0 X50 Y173 Z35 F5000.0  ;Move to pos
G0 Z10 F5000.0  ;Move down
G0 Z35.0F5000.0   ;Move up
;Move to place location 88
G0 X34.538 Y64.03 Z10.0 F5000.0  ;Move Resin extruder to pos
G0 X34.538 Y64.03 Z0.0 F5000.0   ;Lower Resin extruder at pos
M107	              ;Turn vacuum off
G0 X34.538 Y64.03 Z10.0 F5000.0  ;Raise back up Resin extruder at pos
;Pick up 89
G0 X125 Y170 Z25 F5000
G0 Z10 F5000
M106
G0 Z30 F5000
;Puck Refill 89
G0 E-75 F10000
G0 E10 F10000
G0 E-75 F10000
G0 E10 F10000
G0 E-100 F10000
;Dip in resin 89
G0 X50 Y173 Z35 F5000.0  ;Move to pos
G0 Z10 F5000.0  ;Move down
G0 Z35.0F5000.0   ;Move up
;Move to place location 89
G0 X33.55 Y69.075 Z10.0 F5000.0  ;Move Resin extruder to pos
G0 X33.55 Y69.075 Z0.0 F5000.0   ;Lower Resin extruder at pos
M107	              ;Turn vacuum off
G0 X33.55 Y69.075 Z10.0 F5000.0  ;Raise back up Resin extruder at pos
;Pick up 90
G0 X125 Y170 Z25 F5000
G0 Z10 F5000
M106
G0 Z30 F5000
;Puck Refill 90
G0 E-75 F10000
G0 E10 F10000
G0 E-75 F10000
G0 E10 F10000
G0 E-100 F10000
;Dip in resin 90
G0 X50 Y173 Z35 F5000.0  ;Move to pos
G0 Z10 F5000.0  ;Move down
G0 Z35.0F5000.0   ;Move up
;Move to place location 90
G0 X33.232 Y74.226 Z10.0 F5000.0  ;Move Resin extruder to pos
G0 X33.232 Y74.226 Z0.0 F5000.0   ;Lower Resin extruder at pos
M107	              ;Turn vacuum off
G0 X33.232 Y74.226 Z10.0 F5000.0  ;Raise back up Resin extruder at pos
;Pick up 91
G0 X125 Y170 Z25 F5000
G0 Z10 F5000
M106
G0 Z30 F5000
;Puck Refill 91
G0 E-75 F10000
G0 E10 F10000
G0 E-75 F10000
G0 E10 F10000
G0 E-100 F10000
;Dip in resin 91
G0 X50 Y173 Z35 F5000.0  ;Move to pos
G0 Z10 F5000.0  ;Move down
G0 Z35.0F5000.0   ;Move up
;Move to place location 91
G0 X33.55 Y79.376 Z10.0 F5000.0  ;Move Resin extruder to pos
G0 X33.55 Y79.376 Z0.0 F5000.0   ;Lower Resin extruder at pos
M107	              ;Turn vacuum off
G0 X33.55 Y79.376 Z10.0 F5000.0  ;Raise back up Resin extruder at pos
;Pick up 92
G0 X125 Y170 Z25 F5000
G0 Z10 F5000
M106
G0 Z30 F5000
;Puck Refill 92
G0 E-75 F10000
G0 E10 F10000
G0 E-75 F10000
G0 E10 F10000
G0 E-100 F10000
;Dip in resin 92
G0 X50 Y173 Z35 F5000.0  ;Move to pos
G0 Z10 F5000.0  ;Move down
G0 Z35.0F5000.0   ;Move up
;Move to place location 92
G0 X34.538 Y84.421 Z10.0 F5000.0  ;Move Resin extruder to pos
G0 X34.538 Y84.421 Z0.0 F5000.0   ;Lower Resin extruder at pos
M107	              ;Turn vacuum off
G0 X34.538 Y84.421 Z10.0 F5000.0  ;Raise back up Resin extruder at pos
;Pick up 93
G0 X125 Y170 Z25 F5000
G0 Z10 F5000
M106
G0 Z30 F5000
;Puck Refill 93
G0 E-75 F10000
G0 E10 F10000
G0 E-75 F10000
G0 E10 F10000
G0 E-100 F10000
;Dip in resin 93
G0 X50 Y173 Z35 F5000.0  ;Move to pos
G0 Z10 F5000.0  ;Move down
G0 Z35.0F5000.0   ;Move up
;Move to place location 93
G0 X36.125 Y89.325 Z10.0 F5000.0  ;Move Resin extruder to pos
G0 X36.125 Y89.325 Z0.0 F5000.0   ;Lower Resin extruder at pos
M107	              ;Turn vacuum off
G0 X36.125 Y89.325 Z10.0 F5000.0  ;Raise back up Resin extruder at pos
;Pick up 94
G0 X125 Y170 Z25 F5000
G0 Z10 F5000
M106
G0 Z30 F5000
;Puck Refill 94
G0 E-75 F10000
G0 E10 F10000
G0 E-75 F10000
G0 E10 F10000
G0 E-100 F10000
;Dip in resin 94
G0 X50 Y173 Z35 F5000.0  ;Move to pos
G0 Z10 F5000.0  ;Move down
G0 Z35.0F5000.0   ;Move up
;Move to place location 94
G0 X38.312 Y93.982 Z10.0 F5000.0  ;Move Resin extruder to pos
G0 X38.312 Y93.982 Z0.0 F5000.0   ;Lower Resin extruder at pos
M107	              ;Turn vacuum off
G0 X38.312 Y93.982 Z10.0 F5000.0  ;Raise back up Resin extruder at pos
;Pick up 95
G0 X125 Y170 Z25 F5000
G0 Z10 F5000
M106
G0 Z30 F5000
;Puck Refill 95
G0 E-75 F10000
G0 E10 F10000
G0 E-75 F10000
G0 E10 F10000
G0 E-100 F10000
;Dip in resin 95
G0 X50 Y173 Z35 F5000.0  ;Move to pos
G0 Z10 F5000.0  ;Move down
G0 Z35.0F5000.0   ;Move up
;Move to place location 95
G0 X41.064 Y98.321 Z10.0 F5000.0  ;Move Resin extruder to pos
G0 X41.064 Y98.321 Z0.0 F5000.0   ;Lower Resin extruder at pos
M107	              ;Turn vacuum off
G0 X41.064 Y98.321 Z10.0 F5000.0  ;Raise back up Resin extruder at pos
;Pick up 96
G0 X125 Y170 Z25 F5000
G0 Z10 F5000
M106
G0 Z30 F5000
;Puck Refill 96
G0 E-75 F10000
G0 E10 F10000
G0 E-75 F10000
G0 E10 F10000
G0 E-100 F10000
;Dip in resin 96
G0 X50 Y173 Z35 F5000.0  ;Move to pos
G0 Z10 F5000.0  ;Move down
G0 Z35.0F5000.0   ;Move up
;Move to place location 96
G0 X44.345 Y102.307 Z10.0 F5000.0  ;Move Resin extruder to pos
G0 X44.345 Y102.307 Z0.0 F5000.0   ;Lower Resin extruder at pos
M107	              ;Turn vacuum off
G0 X44.345 Y102.307 Z10.0 F5000.0  ;Raise back up Resin extruder at pos
;Pick up 97
G0 X125 Y170 Z25 F5000
G0 Z10 F5000
M106
G0 Z30 F5000
;Puck Refill 97
G0 E-75 F10000
G0 E10 F10000
G0 E-75 F10000
G0 E10 F10000
G0 E-100 F10000
;Dip in resin 97
G0 X50 Y173 Z35 F5000.0  ;Move to pos
G0 Z10 F5000.0  ;Move down
G0 Z35.0F5000.0   ;Move up
;Move to place location 97
G0 X48.12 Y105.835 Z10.0 F5000.0  ;Move Resin extruder to pos
G0 X48.12 Y105.835 Z0.0 F5000.0   ;Lower Resin extruder at pos
M107	              ;Turn vacuum off
G0 X48.12 Y105.835 Z10.0 F5000.0  ;Raise back up Resin extruder at pos
;Pick up 98
G0 X125 Y170 Z25 F5000
G0 Z10 F5000
M106
G0 Z30 F5000
;Puck Refill 98
G0 E-75 F10000
G0 E10 F10000
G0 E-75 F10000
G0 E10 F10000
G0 E-100 F10000
;Dip in resin 98
G0 X50 Y173 Z35 F5000.0  ;Move to pos
G0 Z10 F5000.0  ;Move down
G0 Z35.0F5000.0   ;Move up
;Move to place location 98
G0 X52.283 Y108.834 Z10.0 F5000.0  ;Move Resin extruder to pos
G0 X52.283 Y108.834 Z0.0 F5000.0   ;Lower Resin extruder at pos
M107	              ;Turn vacuum off
G0 X52.283 Y108.834 Z10.0 F5000.0  ;Raise back up Resin extruder at pos
;Pick up 99
G0 X125 Y170 Z25 F5000
G0 Z10 F5000
M106
G0 Z30 F5000
;Puck Refill 99
G0 E-75 F10000
G0 E10 F10000
G0 E-75 F10000
G0 E10 F10000
G0 E-100 F10000
;Dip in resin 99
G0 X50 Y173 Z35 F5000.0  ;Move to pos
G0 Z10 F5000.0  ;Move down
G0 Z35.0F5000.0   ;Move up
;Move to place location 99
G0 X56.798 Y111.338 Z10.0 F5000.0  ;Move Resin extruder to pos
G0 X56.798 Y111.338 Z0.0 F5000.0   ;Lower Resin extruder at pos
M107	              ;Turn vacuum off
G0 X56.798 Y111.338 Z10.0 F5000.0  ;Raise back up Resin extruder at pos
;Pick up 100
G0 X125 Y170 Z25 F5000
G0 Z10 F5000
M106
G0 Z30 F5000
;Puck Refill 100
G0 E-75 F10000
G0 E10 F10000
G0 E-75 F10000
G0 E10 F10000
G0 E-100 F10000
;Dip in resin 100
G0 X50 Y173 Z35 F5000.0  ;Move to pos
G0 Z10 F5000.0  ;Move down
G0 Z35.0F5000.0   ;Move up
;Move to place location 100
G0 X61.561 Y113.208 Z10.0 F5000.0  ;Move Resin extruder to pos
G0 X61.561 Y113.208 Z0.0 F5000.0   ;Lower Resin extruder at pos
M107	              ;Turn vacuum off
G0 X61.561 Y113.208 Z10.0 F5000.0  ;Raise back up Resin extruder at pos
;Pick up 101
G0 X125 Y170 Z25 F5000
G0 Z10 F5000
M106
G0 Z30 F5000
;Puck Refill 101
G0 E-75 F10000
G0 E10 F10000
G0 E-75 F10000
G0 E10 F10000
G0 E-100 F10000
;Dip in resin 101
G0 X50 Y173 Z35 F5000.0  ;Move to pos
G0 Z10 F5000.0  ;Move down
G0 Z35.0F5000.0   ;Move up
;Move to place location 101
G0 X66.57 Y114.514 Z10.0 F5000.0  ;Move Resin extruder to pos
G0 X66.57 Y114.514 Z0.0 F5000.0   ;Lower Resin extruder at pos
M107	              ;Turn vacuum off
G0 X66.57 Y114.514 Z10.0 F5000.0  ;Raise back up Resin extruder at pos
;Pick up 102
G0 X125 Y170 Z25 F5000
G0 Z10 F5000
M106
G0 Z30 F5000
;Puck Refill 102
G0 E-75 F10000
G0 E10 F10000
G0 E-75 F10000
G0 E10 F10000
G0 E-100 F10000
;Dip in resin 102
G0 X50 Y173 Z35 F5000.0  ;Move to pos
G0 Z10 F5000.0  ;Move down
G0 Z35.0F5000.0   ;Move up
;Move to place location 102
G0 X71.65 Y115.149 Z10.0 F5000.0  ;Move Resin extruder to pos
G0 X71.65 Y115.149 Z0.0 F5000.0   ;Lower Resin extruder at pos
M107	              ;Turn vacuum off
G0 X71.65 Y115.149 Z10.0 F5000.0  ;Raise back up Resin extruder at pos
;Pick up 103
G0 X125 Y170 Z25 F5000
G0 Z10 F5000
M106
G0 Z30 F5000
;Puck Refill 103
G0 E-75 F10000
G0 E10 F10000
G0 E-75 F10000
G0 E10 F10000
G0 E-100 F10000
;Dip in resin 103
G0 X50 Y173 Z35 F5000.0  ;Move to pos
G0 Z10 F5000.0  ;Move down
G0 Z35.0F5000.0   ;Move up
;Move to place location 103
G0 X76.801 Y115.149 Z10.0 F5000.0  ;Move Resin extruder to pos
G0 X76.801 Y115.149 Z0.0 F5000.0   ;Lower Resin extruder at pos
M107	              ;Turn vacuum off
G0 X76.801 Y115.149 Z10.0 F5000.0  ;Raise back up Resin extruder at pos
;Pick up 104
G0 X125 Y170 Z25 F5000
G0 Z10 F5000
M106
G0 Z30 F5000
;Puck Refill 104
G0 E-75 F10000
G0 E10 F10000
G0 E-75 F10000
G0 E10 F10000
G0 E-100 F10000
;Dip in resin 104
G0 X50 Y173 Z35 F5000.0  ;Move to pos
G0 Z10 F5000.0  ;Move down
G0 Z35.0F5000.0   ;Move up
;Move to place location 104
G0 X81.916 Y114.514 Z10.0 F5000.0  ;Move Resin extruder to pos
G0 X81.916 Y114.514 Z0.0 F5000.0   ;Lower Resin extruder at pos
M107	              ;Turn vacuum off
G0 X81.916 Y114.514 Z10.0 F5000.0  ;Raise back up Resin extruder at pos
;Pick up 105
G0 X125 Y170 Z25 F5000
G0 Z10 F5000
M106
G0 Z30 F5000
;Puck Refill 105
G0 E-75 F10000
G0 E10 F10000
G0 E-75 F10000
G0 E10 F10000
G0 E-100 F10000
;Dip in resin 105
G0 X50 Y173 Z35 F5000.0  ;Move to pos
G0 Z10 F5000.0  ;Move down
G0 Z35.0F5000.0   ;Move up
;Move to place location 105
G0 X86.926 Y113.208 Z10.0 F5000.0  ;Move Resin extruder to pos
G0 X86.926 Y113.208 Z0.0 F5000.0   ;Lower Resin extruder at pos
M107	              ;Turn vacuum off
G0 X86.926 Y113.208 Z10.0 F5000.0  ;Raise back up Resin extruder at pos
;Pick up 106
G0 X125 Y170 Z25 F5000
G0 Z10 F5000
M106
G0 Z30 F5000
;Puck Refill 106
G0 E-75 F10000
G0 E10 F10000
G0 E-75 F10000
G0 E10 F10000
G0 E-100 F10000
;Dip in resin 106
G0 X50 Y173 Z35 F5000.0  ;Move to pos
G0 Z10 F5000.0  ;Move down
G0 Z35.0F5000.0   ;Move up
;Move to place location 106
G0 X91.688 Y111.338 Z10.0 F5000.0  ;Move Resin extruder to pos
G0 X91.688 Y111.338 Z0.0 F5000.0   ;Lower Resin extruder at pos
M107	              ;Turn vacuum off
G0 X91.688 Y111.338 Z10.0 F5000.0  ;Raise back up Resin extruder at pos
;Pick up 107
G0 X125 Y170 Z25 F5000
G0 Z10 F5000
M106
G0 Z30 F5000
;Puck Refill 107
G0 E-75 F10000
G0 E10 F10000
G0 E-75 F10000
G0 E10 F10000
G0 E-100 F10000
;Dip in resin 107
G0 X50 Y173 Z35 F5000.0  ;Move to pos
G0 Z10 F5000.0  ;Move down
G0 Z35.0F5000.0   ;Move up
;Move to place location 107
G0 X96.204 Y108.834 Z10.0 F5000.0  ;Move Resin extruder to pos
G0 X96.204 Y108.834 Z0.0 F5000.0   ;Lower Resin extruder at pos
M107	              ;Turn vacuum off
G0 X96.204 Y108.834 Z10.0 F5000.0  ;Raise back up Resin extruder at pos
;Pick up 108
G0 X125 Y170 Z25 F5000
G0 Z10 F5000
M106
G0 Z30 F5000
;Puck Refill 108
G0 E-75 F10000
G0 E10 F10000
G0 E-75 F10000
G0 E10 F10000
G0 E-100 F10000
;Dip in resin 108
G0 X50 Y173 Z35 F5000.0  ;Move to pos
G0 Z10 F5000.0  ;Move down
G0 Z35.0F5000.0   ;Move up
;Move to place location 108
G0 X100.367 Y105.835 Z10.0 F5000.0  ;Move Resin extruder to pos
G0 X100.367 Y105.835 Z0.0 F5000.0   ;Lower Resin extruder at pos
M107	              ;Turn vacuum off
G0 X100.367 Y105.835 Z10.0 F5000.0  ;Raise back up Resin extruder at pos
;Pick up 109
G0 X125 Y170 Z25 F5000
G0 Z10 F5000
M106
G0 Z30 F5000
;Puck Refill 109
G0 E-75 F10000
G0 E10 F10000
G0 E-75 F10000
G0 E10 F10000
G0 E-100 F10000
;Dip in resin 109
G0 X50 Y173 Z35 F5000.0  ;Move to pos
G0 Z10 F5000.0  ;Move down
G0 Z35.0F5000.0   ;Move up
;Move to place location 109
G0 X104.142 Y102.307 Z10.0 F5000.0  ;Move Resin extruder to pos
G0 X104.142 Y102.307 Z0.0 F5000.0   ;Lower Resin extruder at pos
M107	              ;Turn vacuum off
G0 X104.142 Y102.307 Z10.0 F5000.0  ;Raise back up Resin extruder at pos
;Pick up 110
G0 X125 Y170 Z25 F5000
G0 Z10 F5000
M106
G0 Z30 F5000
;Puck Refill 110
G0 E-75 F10000
G0 E10 F10000
G0 E-75 F10000
G0 E10 F10000
G0 E-100 F10000
;Dip in resin 110
G0 X50 Y173 Z35 F5000.0  ;Move to pos
G0 Z10 F5000.0  ;Move down
G0 Z35.0F5000.0   ;Move up
;Move to place location 110
G0 X107.423 Y98.321 Z10.0 F5000.0  ;Move Resin extruder to pos
G0 X107.423 Y98.321 Z0.0 F5000.0   ;Lower Resin extruder at pos
M107	              ;Turn vacuum off
G0 X107.423 Y98.321 Z10.0 F5000.0  ;Raise back up Resin extruder at pos
;Pick up 111
G0 X125 Y170 Z25 F5000
G0 Z10 F5000
M106
G0 Z30 F5000
;Puck Refill 111
G0 E-75 F10000
G0 E10 F10000
G0 E-75 F10000
G0 E10 F10000
G0 E-100 F10000
;Dip in resin 111
G0 X50 Y173 Z35 F5000.0  ;Move to pos
G0 Z10 F5000.0  ;Move down
G0 Z35.0F5000.0   ;Move up
;Move to place location 111
G0 X110.174 Y93.982 Z10.0 F5000.0  ;Move Resin extruder to pos
G0 X110.174 Y93.982 Z0.0 F5000.0   ;Lower Resin extruder at pos
M107	              ;Turn vacuum off
G0 X110.174 Y93.982 Z10.0 F5000.0  ;Raise back up Resin extruder at pos
;Pick up 112
G0 X125 Y170 Z25 F5000
G0 Z10 F5000
M106
G0 Z30 F5000
;Puck Refill 112
G0 E-75 F10000
G0 E10 F10000
G0 E-75 F10000
G0 E10 F10000
G0 E-100 F10000
;Dip in resin 112
G0 X50 Y173 Z35 F5000.0  ;Move to pos
G0 Z10 F5000.0  ;Move down
G0 Z35.0F5000.0   ;Move up
;Move to place location 112
G0 X112.362 Y89.325 Z10.0 F5000.0  ;Move Resin extruder to pos
G0 X112.362 Y89.325 Z0.0 F5000.0   ;Lower Resin extruder at pos
M107	              ;Turn vacuum off
G0 X112.362 Y89.325 Z10.0 F5000.0  ;Raise back up Resin extruder at pos
;Pick up 113
G0 X125 Y170 Z25 F5000
G0 Z10 F5000
M106
G0 Z30 F5000
;Puck Refill 113
G0 E-75 F10000
G0 E10 F10000
G0 E-75 F10000
G0 E10 F10000
G0 E-100 F10000
;Dip in resin 113
G0 X50 Y173 Z35 F5000.0  ;Move to pos
G0 Z10 F5000.0  ;Move down
G0 Z35.0F5000.0   ;Move up
;Move to place location 113
G0 X113.949 Y84.421 Z10.0 F5000.0  ;Move Resin extruder to pos
G0 X113.949 Y84.421 Z0.0 F5000.0   ;Lower Resin extruder at pos
M107	              ;Turn vacuum off
G0 X113.949 Y84.421 Z10.0 F5000.0  ;Raise back up Resin extruder at pos
;Pick up 114
G0 X125 Y170 Z25 F5000
G0 Z10 F5000
M106
G0 Z30 F5000
;Puck Refill 114
G0 E-75 F10000
G0 E10 F10000
G0 E-75 F10000
G0 E10 F10000
G0 E-100 F10000
;Dip in resin 114
G0 X50 Y173 Z35 F5000.0  ;Move to pos
G0 Z10 F5000.0  ;Move down
G0 Z35.0F5000.0   ;Move up
;Move to place location 114
G0 X114.902 Y79.376 Z10.0 F5000.0  ;Move Resin extruder to pos
G0 X114.902 Y79.376 Z0.0 F5000.0   ;Lower Resin extruder at pos
M107	              ;Turn vacuum off
G0 X114.902 Y79.376 Z10.0 F5000.0  ;Raise back up Resin extruder at pos
;Pick up 115
G0 X125 Y170 Z25 F5000
G0 Z10 F5000
M106
G0 Z30 F5000
;Puck Refill 115
G0 E-75 F10000
G0 E10 F10000
G0 E-75 F10000
G0 E10 F10000
G0 E-100 F10000
;Dip in resin 115
G0 X50 Y173 Z35 F5000.0  ;Move to pos
G0 Z10 F5000.0  ;Move down
G0 Z35.0F5000.0   ;Move up
;Move to place location 115
G0 X109.751 Y69.11 Z10.0 F5000.0  ;Move Resin extruder to pos
G0 X109.751 Y69.11 Z0.0 F5000.0   ;Lower Resin extruder at pos
M107	              ;Turn vacuum off
G0 X109.751 Y69.11 Z10.0 F5000.0  ;Raise back up Resin extruder at pos
;Pick up 116
G0 X125 Y170 Z25 F5000
G0 Z10 F5000
M106
G0 Z30 F5000
;Puck Refill 116
G0 E-75 F10000
G0 E10 F10000
G0 E-75 F10000
G0 E10 F10000
G0 E-100 F10000
;Dip in resin 116
G0 X50 Y173 Z35 F5000.0  ;Move to pos
G0 Z10 F5000.0  ;Move down
G0 Z35.0F5000.0   ;Move up
;Move to place location 116
G0 X108.657 Y64.136 Z10.0 F5000.0  ;Move Resin extruder to pos
G0 X108.657 Y64.136 Z0.0 F5000.0   ;Lower Resin extruder at pos
M107	              ;Turn vacuum off
G0 X108.657 Y64.136 Z10.0 F5000.0  ;Raise back up Resin extruder at pos
;Pick up 117
G0 X125 Y170 Z25 F5000
G0 Z10 F5000
M106
G0 Z30 F5000
;Puck Refill 117
G0 E-75 F10000
G0 E10 F10000
G0 E-75 F10000
G0 E10 F10000
G0 E-100 F10000
;Dip in resin 117
G0 X50 Y173 Z35 F5000.0  ;Move to pos
G0 Z10 F5000.0  ;Move down
G0 Z35.0F5000.0   ;Move up
;Move to place location 117
G0 X106.858 Y59.338 Z10.0 F5000.0  ;Move Resin extruder to pos
G0 X106.858 Y59.338 Z0.0 F5000.0   ;Lower Resin extruder at pos
M107	              ;Turn vacuum off
G0 X106.858 Y59.338 Z10.0 F5000.0  ;Raise back up Resin extruder at pos
;Pick up 118
G0 X125 Y170 Z25 F5000
G0 Z10 F5000
M106
G0 Z30 F5000
;Puck Refill 118
G0 E-75 F10000
G0 E10 F10000
G0 E-75 F10000
G0 E10 F10000
G0 E-100 F10000
;Dip in resin 118
G0 X50 Y173 Z35 F5000.0  ;Move to pos
G0 Z10 F5000.0  ;Move down
G0 Z35.0F5000.0   ;Move up
;Move to place location 118
G0 X104.424 Y54.823 Z10.0 F5000.0  ;Move Resin extruder to pos
G0 X104.424 Y54.823 Z0.0 F5000.0   ;Lower Resin extruder at pos
M107	              ;Turn vacuum off
G0 X104.424 Y54.823 Z10.0 F5000.0  ;Raise back up Resin extruder at pos
;Pick up 119
G0 X125 Y170 Z25 F5000
G0 Z10 F5000
M106
G0 Z30 F5000
;Puck Refill 119
G0 E-75 F10000
G0 E10 F10000
G0 E-75 F10000
G0 E10 F10000
G0 E-100 F10000
;Dip in resin 119
G0 X50 Y173 Z35 F5000.0  ;Move to pos
G0 Z10 F5000.0  ;Move down
G0 Z35.0F5000.0   ;Move up
;Move to place location 119
G0 X101.355 Y50.73 Z10.0 F5000.0  ;Move Resin extruder to pos
G0 X101.355 Y50.73 Z0.0 F5000.0   ;Lower Resin extruder at pos
M107	              ;Turn vacuum off
G0 X101.355 Y50.73 Z10.0 F5000.0  ;Raise back up Resin extruder at pos
;Pick up 120
G0 X125 Y170 Z25 F5000
G0 Z10 F5000
M106
G0 Z30 F5000
;Puck Refill 120
G0 E-75 F10000
G0 E10 F10000
G0 E-75 F10000
G0 E10 F10000
G0 E-100 F10000
;Dip in resin 120
G0 X50 Y173 Z35 F5000.0  ;Move to pos
G0 Z10 F5000.0  ;Move down
G0 Z35.0F5000.0   ;Move up
;Move to place location 120
G0 X97.721 Y47.132 Z10.0 F5000.0  ;Move Resin extruder to pos
G0 X97.721 Y47.132 Z0.0 F5000.0   ;Lower Resin extruder at pos
M107	              ;Turn vacuum off
G0 X97.721 Y47.132 Z10.0 F5000.0  ;Raise back up Resin extruder at pos
;Pick up 121
G0 X125 Y170 Z25 F5000
G0 Z10 F5000
M106
G0 Z30 F5000
;Puck Refill 121
G0 E-75 F10000
G0 E10 F10000
G0 E-75 F10000
G0 E10 F10000
G0 E-100 F10000
;Dip in resin 121
G0 X50 Y173 Z35 F5000.0  ;Move to pos
G0 Z10 F5000.0  ;Move down
G0 Z35.0F5000.0   ;Move up
;Move to place location 121
G0 X93.629 Y44.063 Z10.0 F5000.0  ;Move Resin extruder to pos
G0 X93.629 Y44.063 Z0.0 F5000.0   ;Lower Resin extruder at pos
M107	              ;Turn vacuum off
G0 X93.629 Y44.063 Z10.0 F5000.0  ;Raise back up Resin extruder at pos
;Pick up 122
G0 X125 Y170 Z25 F5000
G0 Z10 F5000
M106
G0 Z30 F5000
;Puck Refill 122
G0 E-75 F10000
G0 E10 F10000
G0 E-75 F10000
G0 E10 F10000
G0 E-100 F10000
;Dip in resin 122
G0 X50 Y173 Z35 F5000.0  ;Move to pos
G0 Z10 F5000.0  ;Move down
G0 Z35.0F5000.0   ;Move up
;Move to place location 122
G0 X89.148 Y41.593 Z10.0 F5000.0  ;Move Resin extruder to pos
G0 X89.148 Y41.593 Z0.0 F5000.0   ;Lower Resin extruder at pos
M107	              ;Turn vacuum off
G0 X89.148 Y41.593 Z10.0 F5000.0  ;Raise back up Resin extruder at pos
;Pick up 123
G0 X125 Y170 Z25 F5000
G0 Z10 F5000
M106
G0 Z30 F5000
;Puck Refill 123
G0 E-75 F10000
G0 E10 F10000
G0 E-75 F10000
G0 E10 F10000
G0 E-100 F10000
;Dip in resin 123
G0 X50 Y173 Z35 F5000.0  ;Move to pos
G0 Z10 F5000.0  ;Move down
G0 Z35.0F5000.0   ;Move up
;Move to place location 123
G0 X84.351 Y39.794 Z10.0 F5000.0  ;Move Resin extruder to pos
G0 X84.351 Y39.794 Z0.0 F5000.0   ;Lower Resin extruder at pos
M107	              ;Turn vacuum off
G0 X84.351 Y39.794 Z10.0 F5000.0  ;Raise back up Resin extruder at pos
;Pick up 124
G0 X125 Y170 Z25 F5000
G0 Z10 F5000
M106
G0 Z30 F5000
;Puck Refill 124
G0 E-75 F10000
G0 E10 F10000
G0 E-75 F10000
G0 E10 F10000
G0 E-100 F10000
;Dip in resin 124
G0 X50 Y173 Z35 F5000.0  ;Move to pos
G0 Z10 F5000.0  ;Move down
G0 Z35.0F5000.0   ;Move up
;Move to place location 124
G0 X79.341 Y38.736 Z10.0 F5000.0  ;Move Resin extruder to pos
G0 X79.341 Y38.736 Z0.0 F5000.0   ;Lower Resin extruder at pos
M107	              ;Turn vacuum off
G0 X79.341 Y38.736 Z10.0 F5000.0  ;Raise back up Resin extruder at pos
;Pick up 125
G0 X125 Y170 Z25 F5000
G0 Z10 F5000
M106
G0 Z30 F5000
;Puck Refill 125
G0 E-75 F10000
G0 E10 F10000
G0 E-75 F10000
G0 E10 F10000
G0 E-100 F10000
;Dip in resin 125
G0 X50 Y173 Z35 F5000.0  ;Move to pos
G0 Z10 F5000.0  ;Move down
G0 Z35.0F5000.0   ;Move up
;Move to place location 125
G0 X74.226 Y38.348 Z10.0 F5000.0  ;Move Resin extruder to pos
G0 X74.226 Y38.348 Z0.0 F5000.0   ;Lower Resin extruder at pos
M107	              ;Turn vacuum off
G0 X74.226 Y38.348 Z10.0 F5000.0  ;Raise back up Resin extruder at pos
;Pick up 126
G0 X125 Y170 Z25 F5000
G0 Z10 F5000
M106
G0 Z30 F5000
;Puck Refill 126
G0 E-75 F10000
G0 E10 F10000
G0 E-75 F10000
G0 E10 F10000
G0 E-100 F10000
;Dip in resin 126
G0 X50 Y173 Z35 F5000.0  ;Move to pos
G0 Z10 F5000.0  ;Move down
G0 Z35.0F5000.0   ;Move up
;Move to place location 126
G0 X69.146 Y38.736 Z10.0 F5000.0  ;Move Resin extruder to pos
G0 X69.146 Y38.736 Z0.0 F5000.0   ;Lower Resin extruder at pos
M107	              ;Turn vacuum off
G0 X69.146 Y38.736 Z10.0 F5000.0  ;Raise back up Resin extruder at pos
;Pick up 127
G0 X125 Y170 Z25 F5000
G0 Z10 F5000
M106
G0 Z30 F5000
;Puck Refill 127
G0 E-75 F10000
G0 E10 F10000
G0 E-75 F10000
G0 E10 F10000
G0 E-100 F10000
;Dip in resin 127
G0 X50 Y173 Z35 F5000.0  ;Move to pos
G0 Z10 F5000.0  ;Move down
G0 Z35.0F5000.0   ;Move up
;Move to place location 127
G0 X64.136 Y39.794 Z10.0 F5000.0  ;Move Resin extruder to pos
G0 X64.136 Y39.794 Z0.0 F5000.0   ;Lower Resin extruder at pos
M107	              ;Turn vacuum off
G0 X64.136 Y39.794 Z10.0 F5000.0  ;Raise back up Resin extruder at pos
;Pick up 128
G0 X125 Y170 Z25 F5000
G0 Z10 F5000
M106
G0 Z30 F5000
;Puck Refill 128
G0 E-75 F10000
G0 E10 F10000
G0 E-75 F10000
G0 E10 F10000
G0 E-100 F10000
;Dip in resin 128
G0 X50 Y173 Z35 F5000.0  ;Move to pos
G0 Z10 F5000.0  ;Move down
G0 Z35.0F5000.0   ;Move up
;Move to place location 128
G0 X59.338 Y41.593 Z10.0 F5000.0  ;Move Resin extruder to pos
G0 X59.338 Y41.593 Z0.0 F5000.0   ;Lower Resin extruder at pos
M107	              ;Turn vacuum off
G0 X59.338 Y41.593 Z10.0 F5000.0  ;Raise back up Resin extruder at pos
;Pick up 129
G0 X125 Y170 Z25 F5000
G0 Z10 F5000
M106
G0 Z30 F5000
;Puck Refill 129
G0 E-75 F10000
G0 E10 F10000
G0 E-75 F10000
G0 E10 F10000
G0 E-100 F10000
;Dip in resin 129
G0 X50 Y173 Z35 F5000.0  ;Move to pos
G0 Z10 F5000.0  ;Move down
G0 Z35.0F5000.0   ;Move up
;Move to place location 129
G0 X54.858 Y44.063 Z10.0 F5000.0  ;Move Resin extruder to pos
G0 X54.858 Y44.063 Z0.0 F5000.0   ;Lower Resin extruder at pos
M107	              ;Turn vacuum off
G0 X54.858 Y44.063 Z10.0 F5000.0  ;Raise back up Resin extruder at pos
;Pick up 130
G0 X125 Y170 Z25 F5000
G0 Z10 F5000
M106
G0 Z30 F5000
;Puck Refill 130
G0 E-75 F10000
G0 E10 F10000
G0 E-75 F10000
G0 E10 F10000
G0 E-100 F10000
;Dip in resin 130
G0 X50 Y173 Z35 F5000.0  ;Move to pos
G0 Z10 F5000.0  ;Move down
G0 Z35.0F5000.0   ;Move up
;Move to place location 130
G0 X50.73 Y47.132 Z10.0 F5000.0  ;Move Resin extruder to pos
G0 X50.73 Y47.132 Z0.0 F5000.0   ;Lower Resin extruder at pos
M107	              ;Turn vacuum off
G0 X50.73 Y47.132 Z10.0 F5000.0  ;Raise back up Resin extruder at pos
;Pick up 131
G0 X125 Y170 Z25 F5000
G0 Z10 F5000
M106
G0 Z30 F5000
;Puck Refill 131
G0 E-75 F10000
G0 E10 F10000
G0 E-75 F10000
G0 E10 F10000
G0 E-100 F10000
;Dip in resin 131
G0 X50 Y173 Z35 F5000.0  ;Move to pos
G0 Z10 F5000.0  ;Move down
G0 Z35.0F5000.0   ;Move up
;Move to place location 131
G0 X47.132 Y50.73 Z10.0 F5000.0  ;Move Resin extruder to pos
G0 X47.132 Y50.73 Z0.0 F5000.0   ;Lower Resin extruder at pos
M107	              ;Turn vacuum off
G0 X47.132 Y50.73 Z10.0 F5000.0  ;Raise back up Resin extruder at pos
;Pick up 132
G0 X125 Y170 Z25 F5000
G0 Z10 F5000
M106
G0 Z30 F5000
;Puck Refill 132
G0 E-75 F10000
G0 E10 F10000
G0 E-75 F10000
G0 E10 F10000
G0 E-100 F10000
;Dip in resin 132
G0 X50 Y173 Z35 F5000.0  ;Move to pos
G0 Z10 F5000.0  ;Move down
G0 Z35.0F5000.0   ;Move up
;Move to place location 132
G0 X44.063 Y54.823 Z10.0 F5000.0  ;Move Resin extruder to pos
G0 X44.063 Y54.823 Z0.0 F5000.0   ;Lower Resin extruder at pos
M107	              ;Turn vacuum off
G0 X44.063 Y54.823 Z10.0 F5000.0  ;Raise back up Resin extruder at pos
;Pick up 133
G0 X125 Y170 Z25 F5000
G0 Z10 F5000
M106
G0 Z30 F5000
;Puck Refill 133
G0 E-75 F10000
G0 E10 F10000
G0 E-75 F10000
G0 E10 F10000
G0 E-100 F10000
;Dip in resin 133
G0 X50 Y173 Z35 F5000.0  ;Move to pos
G0 Z10 F5000.0  ;Move down
G0 Z35.0F5000.0   ;Move up
;Move to place location 133
G0 X41.593 Y59.338 Z10.0 F5000.0  ;Move Resin extruder to pos
G0 X41.593 Y59.338 Z0.0 F5000.0   ;Lower Resin extruder at pos
M107	              ;Turn vacuum off
G0 X41.593 Y59.338 Z10.0 F5000.0  ;Raise back up Resin extruder at pos
;Pick up 134
G0 X125 Y170 Z25 F5000
G0 Z10 F5000
M106
G0 Z30 F5000
;Puck Refill 134
G0 E-75 F10000
G0 E10 F10000
G0 E-75 F10000
G0 E10 F10000
G0 E-100 F10000
;Dip in resin 134
G0 X50 Y173 Z35 F5000.0  ;Move to pos
G0 Z10 F5000.0  ;Move down
G0 Z35.0F5000.0   ;Move up
;Move to place location 134
G0 X39.829 Y64.136 Z10.0 F5000.0  ;Move Resin extruder to pos
G0 X39.829 Y64.136 Z0.0 F5000.0   ;Lower Resin extruder at pos
M107	              ;Turn vacuum off
G0 X39.829 Y64.136 Z10.0 F5000.0  ;Raise back up Resin extruder at pos
;Pick up 135
G0 X125 Y170 Z25 F5000
G0 Z10 F5000
M106
G0 Z30 F5000
;Puck Refill 135
G0 E-75 F10000
G0 E10 F10000
G0 E-75 F10000
G0 E10 F10000
G0 E-100 F10000
;Dip in resin 135
G0 X50 Y173 Z35 F5000.0  ;Move to pos
G0 Z10 F5000.0  ;Move down
G0 Z35.0F5000.0   ;Move up
;Move to place location 135
G0 X38.736 Y69.11 Z10.0 F5000.0  ;Move Resin extruder to pos
G0 X38.736 Y69.11 Z0.0 F5000.0   ;Lower Resin extruder at pos
M107	              ;Turn vacuum off
G0 X38.736 Y69.11 Z10.0 F5000.0  ;Raise back up Resin extruder at pos
;Pick up 136
G0 X125 Y170 Z25 F5000
G0 Z10 F5000
M106
G0 Z30 F5000
;Puck Refill 136
G0 E-75 F10000
G0 E10 F10000
G0 E-75 F10000
G0 E10 F10000
G0 E-100 F10000
;Dip in resin 136
G0 X50 Y173 Z35 F5000.0  ;Move to pos
G0 Z10 F5000.0  ;Move down
G0 Z35.0F5000.0   ;Move up
;Move to place location 136
G0 X38.383 Y74.226 Z10.0 F5000.0  ;Move Resin extruder to pos
G0 X38.383 Y74.226 Z0.0 F5000.0   ;Lower Resin extruder at pos
M107	              ;Turn vacuum off
G0 X38.383 Y74.226 Z10.0 F5000.0  ;Raise back up Resin extruder at pos
;Pick up 137
G0 X125 Y170 Z25 F5000
G0 Z10 F5000
M106
G0 Z30 F5000
;Puck Refill 137
G0 E-75 F10000
G0 E10 F10000
G0 E-75 F10000
G0 E10 F10000
G0 E-100 F10000
;Dip in resin 137
G0 X50 Y173 Z35 F5000.0  ;Move to pos
G0 Z10 F5000.0  ;Move down
G0 Z35.0F5000.0   ;Move up
;Move to place location 137
G0 X38.736 Y79.341 Z10.0 F5000.0  ;Move Resin extruder to pos
G0 X38.736 Y79.341 Z0.0 F5000.0   ;Lower Resin extruder at pos
M107	              ;Turn vacuum off
G0 X38.736 Y79.341 Z10.0 F5000.0  ;Raise back up Resin extruder at pos
;Pick up 138
G0 X125 Y170 Z25 F5000
G0 Z10 F5000
M106
G0 Z30 F5000
;Puck Refill 138
G0 E-75 F10000
G0 E10 F10000
G0 E-75 F10000
G0 E10 F10000
G0 E-100 F10000
;Dip in resin 138
G0 X50 Y173 Z35 F5000.0  ;Move to pos
G0 Z10 F5000.0  ;Move down
G0 Z35.0F5000.0   ;Move up
;Move to place location 138
G0 X39.829 Y84.351 Z10.0 F5000.0  ;Move Resin extruder to pos
G0 X39.829 Y84.351 Z0.0 F5000.0   ;Lower Resin extruder at pos
M107	              ;Turn vacuum off
G0 X39.829 Y84.351 Z10.0 F5000.0  ;Raise back up Resin extruder at pos
;Pick up 139
G0 X125 Y170 Z25 F5000
G0 Z10 F5000
M106
G0 Z30 F5000
;Puck Refill 139
G0 E-75 F10000
G0 E10 F10000
G0 E-75 F10000
G0 E10 F10000
G0 E-100 F10000
;Dip in resin 139
G0 X50 Y173 Z35 F5000.0  ;Move to pos
G0 Z10 F5000.0  ;Move down
G0 Z35.0F5000.0   ;Move up
;Move to place location 139
G0 X41.593 Y89.148 Z10.0 F5000.0  ;Move Resin extruder to pos
G0 X41.593 Y89.148 Z0.0 F5000.0   ;Lower Resin extruder at pos
M107	              ;Turn vacuum off
G0 X41.593 Y89.148 Z10.0 F5000.0  ;Raise back up Resin extruder at pos
;Pick up 140
G0 X125 Y170 Z25 F5000
G0 Z10 F5000
M106
G0 Z30 F5000
;Puck Refill 140
G0 E-75 F10000
G0 E10 F10000
G0 E-75 F10000
G0 E10 F10000
G0 E-100 F10000
;Dip in resin 140
G0 X50 Y173 Z35 F5000.0  ;Move to pos
G0 Z10 F5000.0  ;Move down
G0 Z35.0F5000.0   ;Move up
;Move to place location 140
G0 X44.063 Y93.629 Z10.0 F5000.0  ;Move Resin extruder to pos
G0 X44.063 Y93.629 Z0.0 F5000.0   ;Lower Resin extruder at pos
M107	              ;Turn vacuum off
G0 X44.063 Y93.629 Z10.0 F5000.0  ;Raise back up Resin extruder at pos
;Pick up 141
G0 X125 Y170 Z25 F5000
G0 Z10 F5000
M106
G0 Z30 F5000
;Puck Refill 141
G0 E-75 F10000
G0 E10 F10000
G0 E-75 F10000
G0 E10 F10000
G0 E-100 F10000
;Dip in resin 141
G0 X50 Y173 Z35 F5000.0  ;Move to pos
G0 Z10 F5000.0  ;Move down
G0 Z35.0F5000.0   ;Move up
;Move to place location 141
G0 X47.132 Y97.721 Z10.0 F5000.0  ;Move Resin extruder to pos
G0 X47.132 Y97.721 Z0.0 F5000.0   ;Lower Resin extruder at pos
M107	              ;Turn vacuum off
G0 X47.132 Y97.721 Z10.0 F5000.0  ;Raise back up Resin extruder at pos
;Pick up 142
G0 X125 Y170 Z25 F5000
G0 Z10 F5000
M106
G0 Z30 F5000
;Puck Refill 142
G0 E-75 F10000
G0 E10 F10000
G0 E-75 F10000
G0 E10 F10000
G0 E-100 F10000
;Dip in resin 142
G0 X50 Y173 Z35 F5000.0  ;Move to pos
G0 Z10 F5000.0  ;Move down
G0 Z35.0F5000.0   ;Move up
;Move to place location 142
G0 X50.766 Y101.355 Z10.0 F5000.0  ;Move Resin extruder to pos
G0 X50.766 Y101.355 Z0.0 F5000.0   ;Lower Resin extruder at pos
M107	              ;Turn vacuum off
G0 X50.766 Y101.355 Z10.0 F5000.0  ;Raise back up Resin extruder at pos
;Pick up 143
G0 X125 Y170 Z25 F5000
G0 Z10 F5000
M106
G0 Z30 F5000
;Puck Refill 143
G0 E-75 F10000
G0 E10 F10000
G0 E-75 F10000
G0 E10 F10000
G0 E-100 F10000
;Dip in resin 143
G0 X50 Y173 Z35 F5000.0  ;Move to pos
G0 Z10 F5000.0  ;Move down
G0 Z35.0F5000.0   ;Move up
;Move to place location 143
G0 X54.858 Y104.424 Z10.0 F5000.0  ;Move Resin extruder to pos
G0 X54.858 Y104.424 Z0.0 F5000.0   ;Lower Resin extruder at pos
M107	              ;Turn vacuum off
G0 X54.858 Y104.424 Z10.0 F5000.0  ;Raise back up Resin extruder at pos
;Pick up 144
G0 X125 Y170 Z25 F5000
G0 Z10 F5000
M106
G0 Z30 F5000
;Puck Refill 144
G0 E-75 F10000
G0 E10 F10000
G0 E-75 F10000
G0 E10 F10000
G0 E-100 F10000
;Dip in resin 144
G0 X50 Y173 Z35 F5000.0  ;Move to pos
G0 Z10 F5000.0  ;Move down
G0 Z35.0F5000.0   ;Move up
;Move to place location 144
G0 X59.338 Y106.858 Z10.0 F5000.0  ;Move Resin extruder to pos
G0 X59.338 Y106.858 Z0.0 F5000.0   ;Lower Resin extruder at pos
M107	              ;Turn vacuum off
G0 X59.338 Y106.858 Z10.0 F5000.0  ;Raise back up Resin extruder at pos
;Pick up 145
G0 X125 Y170 Z25 F5000
G0 Z10 F5000
M106
G0 Z30 F5000
;Puck Refill 145
G0 E-75 F10000
G0 E10 F10000
G0 E-75 F10000
G0 E10 F10000
G0 E-100 F10000
;Dip in resin 145
G0 X50 Y173 Z35 F5000.0  ;Move to pos
G0 Z10 F5000.0  ;Move down
G0 Z35.0F5000.0   ;Move up
;Move to place location 145
G0 X64.136 Y108.657 Z10.0 F5000.0  ;Move Resin extruder to pos
G0 X64.136 Y108.657 Z0.0 F5000.0   ;Lower Resin extruder at pos
M107	              ;Turn vacuum off
G0 X64.136 Y108.657 Z10.0 F5000.0  ;Raise back up Resin extruder at pos
;Pick up 146
G0 X125 Y170 Z25 F5000
G0 Z10 F5000
M106
G0 Z30 F5000
;Puck Refill 146
G0 E-75 F10000
G0 E10 F10000
G0 E-75 F10000
G0 E10 F10000
G0 E-100 F10000
;Dip in resin 146
G0 X50 Y173 Z35 F5000.0  ;Move to pos
G0 Z10 F5000.0  ;Move down
G0 Z35.0F5000.0   ;Move up
;Move to place location 146
G0 X69.146 Y109.751 Z10.0 F5000.0  ;Move Resin extruder to pos
G0 X69.146 Y109.751 Z0.0 F5000.0   ;Lower Resin extruder at pos
M107	              ;Turn vacuum off
G0 X69.146 Y109.751 Z10.0 F5000.0  ;Raise back up Resin extruder at pos
;Pick up 147
G0 X125 Y170 Z25 F5000
G0 Z10 F5000
M106
G0 Z30 F5000
;Puck Refill 147
G0 E-75 F10000
G0 E10 F10000
G0 E-75 F10000
G0 E10 F10000
G0 E-100 F10000
;Dip in resin 147
G0 X50 Y173 Z35 F5000.0  ;Move to pos
G0 Z10 F5000.0  ;Move down
G0 Z35.0F5000.0   ;Move up
;Move to place location 147
G0 X74.261 Y110.104 Z10.0 F5000.0  ;Move Resin extruder to pos
G0 X74.261 Y110.104 Z0.0 F5000.0   ;Lower Resin extruder at pos
M107	              ;Turn vacuum off
G0 X74.261 Y110.104 Z10.0 F5000.0  ;Raise back up Resin extruder at pos
;Pick up 148
G0 X125 Y170 Z25 F5000
G0 Z10 F5000
M106
G0 Z30 F5000
;Puck Refill 148
G0 E-75 F10000
G0 E10 F10000
G0 E-75 F10000
G0 E10 F10000
G0 E-100 F10000
;Dip in resin 148
G0 X50 Y173 Z35 F5000.0  ;Move to pos
G0 Z10 F5000.0  ;Move down
G0 Z35.0F5000.0   ;Move up
;Move to place location 148
G0 X79.341 Y109.751 Z10.0 F5000.0  ;Move Resin extruder to pos
G0 X79.341 Y109.751 Z0.0 F5000.0   ;Lower Resin extruder at pos
M107	              ;Turn vacuum off
G0 X79.341 Y109.751 Z10.0 F5000.0  ;Raise back up Resin extruder at pos
;Pick up 149
G0 X125 Y170 Z25 F5000
G0 Z10 F5000
M106
G0 Z30 F5000
;Puck Refill 149
G0 E-75 F10000
G0 E10 F10000
G0 E-75 F10000
G0 E10 F10000
G0 E-100 F10000
;Dip in resin 149
G0 X50 Y173 Z35 F5000.0  ;Move to pos
G0 Z10 F5000.0  ;Move down
G0 Z35.0F5000.0   ;Move up
;Move to place location 149
G0 X84.351 Y108.657 Z10.0 F5000.0  ;Move Resin extruder to pos
G0 X84.351 Y108.657 Z0.0 F5000.0   ;Lower Resin extruder at pos
M107	              ;Turn vacuum off
G0 X84.351 Y108.657 Z10.0 F5000.0  ;Raise back up Resin extruder at pos
;Pick up 150
G0 X125 Y170 Z25 F5000
G0 Z10 F5000
M106
G0 Z30 F5000
;Puck Refill 150
G0 E-75 F10000
G0 E10 F10000
G0 E-75 F10000
G0 E10 F10000
G0 E-100 F10000
;Dip in resin 150
G0 X50 Y173 Z35 F5000.0  ;Move to pos
G0 Z10 F5000.0  ;Move down
G0 Z35.0F5000.0   ;Move up
;Move to place location 150
G0 X89.148 Y106.858 Z10.0 F5000.0  ;Move Resin extruder to pos
G0 X89.148 Y106.858 Z0.0 F5000.0   ;Lower Resin extruder at pos
M107	              ;Turn vacuum off
G0 X89.148 Y106.858 Z10.0 F5000.0  ;Raise back up Resin extruder at pos
;Pick up 151
G0 X125 Y170 Z25 F5000
G0 Z10 F5000
M106
G0 Z30 F5000
;Puck Refill 151
G0 E-75 F10000
G0 E10 F10000
G0 E-75 F10000
G0 E10 F10000
G0 E-100 F10000
;Dip in resin 151
G0 X50 Y173 Z35 F5000.0  ;Move to pos
G0 Z10 F5000.0  ;Move down
G0 Z35.0F5000.0   ;Move up
;Move to place location 151
G0 X93.629 Y104.424 Z10.0 F5000.0  ;Move Resin extruder to pos
G0 X93.629 Y104.424 Z0.0 F5000.0   ;Lower Resin extruder at pos
M107	              ;Turn vacuum off
G0 X93.629 Y104.424 Z10.0 F5000.0  ;Raise back up Resin extruder at pos
;Pick up 152
G0 X125 Y170 Z25 F5000
G0 Z10 F5000
M106
G0 Z30 F5000
;Puck Refill 152
G0 E-75 F10000
G0 E10 F10000
G0 E-75 F10000
G0 E10 F10000
G0 E-100 F10000
;Dip in resin 152
G0 X50 Y173 Z35 F5000.0  ;Move to pos
G0 Z10 F5000.0  ;Move down
G0 Z35.0F5000.0   ;Move up
;Move to place location 152
G0 X97.721 Y101.355 Z10.0 F5000.0  ;Move Resin extruder to pos
G0 X97.721 Y101.355 Z0.0 F5000.0   ;Lower Resin extruder at pos
M107	              ;Turn vacuum off
G0 X97.721 Y101.355 Z10.0 F5000.0  ;Raise back up Resin extruder at pos
;Pick up 153
G0 X125 Y170 Z25 F5000
G0 Z10 F5000
M106
G0 Z30 F5000
;Puck Refill 153
G0 E-75 F10000
G0 E10 F10000
G0 E-75 F10000
G0 E10 F10000
G0 E-100 F10000
;Dip in resin 153
G0 X50 Y173 Z35 F5000.0  ;Move to pos
G0 Z10 F5000.0  ;Move down
G0 Z35.0F5000.0   ;Move up
;Move to place location 153
G0 X101.355 Y97.721 Z10.0 F5000.0  ;Move Resin extruder to pos
G0 X101.355 Y97.721 Z0.0 F5000.0   ;Lower Resin extruder at pos
M107	              ;Turn vacuum off
G0 X101.355 Y97.721 Z10.0 F5000.0  ;Raise back up Resin extruder at pos
;Pick up 154
G0 X125 Y170 Z25 F5000
G0 Z10 F5000
M106
G0 Z30 F5000
;Puck Refill 154
G0 E-75 F10000
G0 E10 F10000
G0 E-75 F10000
G0 E10 F10000
G0 E-100 F10000
;Dip in resin 154
G0 X50 Y173 Z35 F5000.0  ;Move to pos
G0 Z10 F5000.0  ;Move down
G0 Z35.0F5000.0   ;Move up
;Move to place location 154
G0 X104.424 Y93.629 Z10.0 F5000.0  ;Move Resin extruder to pos
G0 X104.424 Y93.629 Z0.0 F5000.0   ;Lower Resin extruder at pos
M107	              ;Turn vacuum off
G0 X104.424 Y93.629 Z10.0 F5000.0  ;Raise back up Resin extruder at pos
;Pick up 155
G0 X125 Y170 Z25 F5000
G0 Z10 F5000
M106
G0 Z30 F5000
;Puck Refill 155
G0 E-75 F10000
G0 E10 F10000
G0 E-75 F10000
G0 E10 F10000
G0 E-100 F10000
;Dip in resin 155
G0 X50 Y173 Z35 F5000.0  ;Move to pos
G0 Z10 F5000.0  ;Move down
G0 Z35.0F5000.0   ;Move up
;Move to place location 155
G0 X106.893 Y89.113 Z10.0 F5000.0  ;Move Resin extruder to pos
G0 X106.893 Y89.113 Z0.0 F5000.0   ;Lower Resin extruder at pos
M107	              ;Turn vacuum off
G0 X106.893 Y89.113 Z10.0 F5000.0  ;Raise back up Resin extruder at pos
;Pick up 156
G0 X125 Y170 Z25 F5000
G0 Z10 F5000
M106
G0 Z30 F5000
;Puck Refill 156
G0 E-75 F10000
G0 E10 F10000
G0 E-75 F10000
G0 E10 F10000
G0 E-100 F10000
;Dip in resin 156
G0 X50 Y173 Z35 F5000.0  ;Move to pos
G0 Z10 F5000.0  ;Move down
G0 Z35.0F5000.0   ;Move up
;Move to place location 156
G0 X108.657 Y84.351 Z10.0 F5000.0  ;Move Resin extruder to pos
G0 X108.657 Y84.351 Z0.0 F5000.0   ;Lower Resin extruder at pos
M107	              ;Turn vacuum off
G0 X108.657 Y84.351 Z10.0 F5000.0  ;Raise back up Resin extruder at pos
;Pick up 157
G0 X125 Y170 Z25 F5000
G0 Z10 F5000
M106
G0 Z30 F5000
;Puck Refill 157
G0 E-75 F10000
G0 E10 F10000
G0 E-75 F10000
G0 E10 F10000
G0 E-100 F10000
;Dip in resin 157
G0 X50 Y173 Z35 F5000.0  ;Move to pos
G0 Z10 F5000.0  ;Move down
G0 Z35.0F5000.0   ;Move up
;Move to place location 157
G0 X109.751 Y79.341 Z10.0 F5000.0  ;Move Resin extruder to pos
G0 X109.751 Y79.341 Z0.0 F5000.0   ;Lower Resin extruder at pos
M107	              ;Turn vacuum off
G0 X109.751 Y79.341 Z10.0 F5000.0  ;Raise back up Resin extruder at pos
;Pick up 158
G0 X125 Y170 Z25 F5000
G0 Z10 F5000
M106
G0 Z30 F5000
;Puck Refill 158
G0 E-75 F10000
G0 E10 F10000
G0 E-75 F10000
G0 E10 F10000
G0 E-100 F10000
;Dip in resin 158
G0 X50 Y173 Z35 F5000.0  ;Move to pos
G0 Z10 F5000.0  ;Move down
G0 Z35.0F5000.0   ;Move up
;Move to place location 158
G0 X104.565 Y69.181 Z10.0 F5000.0  ;Move Resin extruder to pos
G0 X104.565 Y69.181 Z0.0 F5000.0   ;Lower Resin extruder at pos
M107	              ;Turn vacuum off
G0 X104.565 Y69.181 Z10.0 F5000.0  ;Raise back up Resin extruder at pos
;Pick up 159
G0 X125 Y170 Z25 F5000
G0 Z10 F5000
M106
G0 Z30 F5000
;Puck Refill 159
G0 E-75 F10000
G0 E10 F10000
G0 E-75 F10000
G0 E10 F10000
G0 E-100 F10000
;Dip in resin 159
G0 X50 Y173 Z35 F5000.0  ;Move to pos
G0 Z10 F5000.0  ;Move down
G0 Z35.0F5000.0   ;Move up
;Move to place location 159
G0 X103.33 Y64.242 Z10.0 F5000.0  ;Move Resin extruder to pos
G0 X103.33 Y64.242 Z0.0 F5000.0   ;Lower Resin extruder at pos
M107	              ;Turn vacuum off
G0 X103.33 Y64.242 Z10.0 F5000.0  ;Raise back up Resin extruder at pos
;Pick up 160
G0 X125 Y170 Z25 F5000
G0 Z10 F5000
M106
G0 Z30 F5000
;Puck Refill 160
G0 E-75 F10000
G0 E10 F10000
G0 E-75 F10000
G0 E10 F10000
G0 E-100 F10000
;Dip in resin 160
G0 X50 Y173 Z35 F5000.0  ;Move to pos
G0 Z10 F5000.0  ;Move down
G0 Z35.0F5000.0   ;Move up
;Move to place location 160
G0 X101.284 Y59.585 Z10.0 F5000.0  ;Move Resin extruder to pos
G0 X101.284 Y59.585 Z0.0 F5000.0   ;Lower Resin extruder at pos
M107	              ;Turn vacuum off
G0 X101.284 Y59.585 Z10.0 F5000.0  ;Raise back up Resin extruder at pos
;Pick up 161
G0 X125 Y170 Z25 F5000
G0 Z10 F5000
M106
G0 Z30 F5000
;Puck Refill 161
G0 E-75 F10000
G0 E10 F10000
G0 E-75 F10000
G0 E10 F10000
G0 E-100 F10000
;Dip in resin 161
G0 X50 Y173 Z35 F5000.0  ;Move to pos
G0 Z10 F5000.0  ;Move down
G0 Z35.0F5000.0   ;Move up
;Move to place location 161
G0 X98.497 Y55.352 Z10.0 F5000.0  ;Move Resin extruder to pos
G0 X98.497 Y55.352 Z0.0 F5000.0   ;Lower Resin extruder at pos
M107	              ;Turn vacuum off
G0 X98.497 Y55.352 Z10.0 F5000.0  ;Raise back up Resin extruder at pos
;Pick up 162
G0 X125 Y170 Z25 F5000
G0 Z10 F5000
M106
G0 Z30 F5000
;Puck Refill 162
G0 E-75 F10000
G0 E10 F10000
G0 E-75 F10000
G0 E10 F10000
G0 E-100 F10000
;Dip in resin 162
G0 X50 Y173 Z35 F5000.0  ;Move to pos
G0 Z10 F5000.0  ;Move down
G0 Z35.0F5000.0   ;Move up
;Move to place location 162
G0 X95.075 Y51.612 Z10.0 F5000.0  ;Move Resin extruder to pos
G0 X95.075 Y51.612 Z0.0 F5000.0   ;Lower Resin extruder at pos
M107	              ;Turn vacuum off
G0 X95.075 Y51.612 Z10.0 F5000.0  ;Raise back up Resin extruder at pos
;Pick up 163
G0 X125 Y170 Z25 F5000
G0 Z10 F5000
M106
G0 Z30 F5000
;Puck Refill 163
G0 E-75 F10000
G0 E10 F10000
G0 E-75 F10000
G0 E10 F10000
G0 E-100 F10000
;Dip in resin 163
G0 X50 Y173 Z35 F5000.0  ;Move to pos
G0 Z10 F5000.0  ;Move down
G0 Z35.0F5000.0   ;Move up
;Move to place location 163
G0 X91.053 Y48.472 Z10.0 F5000.0  ;Move Resin extruder to pos
G0 X91.053 Y48.472 Z0.0 F5000.0   ;Lower Resin extruder at pos
M107	              ;Turn vacuum off
G0 X91.053 Y48.472 Z10.0 F5000.0  ;Raise back up Resin extruder at pos
;Pick up 164
G0 X125 Y170 Z25 F5000
G0 Z10 F5000
M106
G0 Z30 F5000
;Puck Refill 164
G0 E-75 F10000
G0 E10 F10000
G0 E-75 F10000
G0 E10 F10000
G0 E-100 F10000
;Dip in resin 164
G0 X50 Y173 Z35 F5000.0  ;Move to pos
G0 Z10 F5000.0  ;Move down
G0 Z35.0F5000.0   ;Move up
;Move to place location 164
G0 X86.608 Y46.074 Z10.0 F5000.0  ;Move Resin extruder to pos
G0 X86.608 Y46.074 Z0.0 F5000.0   ;Lower Resin extruder at pos
M107	              ;Turn vacuum off
G0 X86.608 Y46.074 Z10.0 F5000.0  ;Raise back up Resin extruder at pos
;Pick up 165
G0 X125 Y170 Z25 F5000
G0 Z10 F5000
M106
G0 Z30 F5000
;Puck Refill 165
G0 E-75 F10000
G0 E10 F10000
G0 E-75 F10000
G0 E10 F10000
G0 E-100 F10000
;Dip in resin 165
G0 X50 Y173 Z35 F5000.0  ;Move to pos
G0 Z10 F5000.0  ;Move down
G0 Z35.0F5000.0   ;Move up
;Move to place location 165
G0 X81.775 Y44.415 Z10.0 F5000.0  ;Move Resin extruder to pos
G0 X81.775 Y44.415 Z0.0 F5000.0   ;Lower Resin extruder at pos
M107	              ;Turn vacuum off
G0 X81.775 Y44.415 Z10.0 F5000.0  ;Raise back up Resin extruder at pos
;Pick up 166
G0 X125 Y170 Z25 F5000
G0 Z10 F5000
M106
G0 Z30 F5000
;Puck Refill 166
G0 E-75 F10000
G0 E10 F10000
G0 E-75 F10000
G0 E10 F10000
G0 E-100 F10000
;Dip in resin 166
G0 X50 Y173 Z35 F5000.0  ;Move to pos
G0 Z10 F5000.0  ;Move down
G0 Z35.0F5000.0   ;Move up
;Move to place location 166
G0 X76.766 Y43.569 Z10.0 F5000.0  ;Move Resin extruder to pos
G0 X76.766 Y43.569 Z0.0 F5000.0   ;Lower Resin extruder at pos
M107	              ;Turn vacuum off
G0 X76.766 Y43.569 Z10.0 F5000.0  ;Raise back up Resin extruder at pos
;Pick up 167
G0 X125 Y170 Z25 F5000
G0 Z10 F5000
M106
G0 Z30 F5000
;Puck Refill 167
G0 E-75 F10000
G0 E10 F10000
G0 E-75 F10000
G0 E10 F10000
G0 E-100 F10000
;Dip in resin 167
G0 X50 Y173 Z35 F5000.0  ;Move to pos
G0 Z10 F5000.0  ;Move down
G0 Z35.0F5000.0   ;Move up
;Move to place location 167
G0 X71.686 Y43.569 Z10.0 F5000.0  ;Move Resin extruder to pos
G0 X71.686 Y43.569 Z0.0 F5000.0   ;Lower Resin extruder at pos
M107	              ;Turn vacuum off
G0 X71.686 Y43.569 Z10.0 F5000.0  ;Raise back up Resin extruder at pos
;Pick up 168
G0 X125 Y170 Z25 F5000
G0 Z10 F5000
M106
G0 Z30 F5000
;Puck Refill 168
G0 E-75 F10000
G0 E10 F10000
G0 E-75 F10000
G0 E10 F10000
G0 E-100 F10000
;Dip in resin 168
G0 X50 Y173 Z35 F5000.0  ;Move to pos
G0 Z10 F5000.0  ;Move down
G0 Z35.0F5000.0   ;Move up
;Move to place location 168
G0 X66.676 Y44.415 Z10.0 F5000.0  ;Move Resin extruder to pos
G0 X66.676 Y44.415 Z0.0 F5000.0   ;Lower Resin extruder at pos
M107	              ;Turn vacuum off
G0 X66.676 Y44.415 Z10.0 F5000.0  ;Raise back up Resin extruder at pos
;Pick up 169
G0 X125 Y170 Z25 F5000
G0 Z10 F5000
M106
G0 Z30 F5000
;Puck Refill 169
G0 E-75 F10000
G0 E10 F10000
G0 E-75 F10000
G0 E10 F10000
G0 E-100 F10000
;Dip in resin 169
G0 X50 Y173 Z35 F5000.0  ;Move to pos
G0 Z10 F5000.0  ;Move down
G0 Z35.0F5000.0   ;Move up
;Move to place location 169
G0 X61.878 Y46.074 Z10.0 F5000.0  ;Move Resin extruder to pos
G0 X61.878 Y46.074 Z0.0 F5000.0   ;Lower Resin extruder at pos
M107	              ;Turn vacuum off
G0 X61.878 Y46.074 Z10.0 F5000.0  ;Raise back up Resin extruder at pos
;Pick up 170
G0 X125 Y170 Z25 F5000
G0 Z10 F5000
M106
G0 Z30 F5000
;Puck Refill 170
G0 E-75 F10000
G0 E10 F10000
G0 E-75 F10000
G0 E10 F10000
G0 E-100 F10000
;Dip in resin 170
G0 X50 Y173 Z35 F5000.0  ;Move to pos
G0 Z10 F5000.0  ;Move down
G0 Z35.0F5000.0   ;Move up
;Move to place location 170
G0 X57.433 Y48.472 Z10.0 F5000.0  ;Move Resin extruder to pos
G0 X57.433 Y48.472 Z0.0 F5000.0   ;Lower Resin extruder at pos
M107	              ;Turn vacuum off
G0 X57.433 Y48.472 Z10.0 F5000.0  ;Raise back up Resin extruder at pos
;Pick up 171
G0 X125 Y170 Z25 F5000
G0 Z10 F5000
M106
G0 Z30 F5000
;Puck Refill 171
G0 E-75 F10000
G0 E10 F10000
G0 E-75 F10000
G0 E10 F10000
G0 E-100 F10000
;Dip in resin 171
G0 X50 Y173 Z35 F5000.0  ;Move to pos
G0 Z10 F5000.0  ;Move down
G0 Z35.0F5000.0   ;Move up
;Move to place location 171
G0 X53.411 Y51.612 Z10.0 F5000.0  ;Move Resin extruder to pos
G0 X53.411 Y51.612 Z0.0 F5000.0   ;Lower Resin extruder at pos
M107	              ;Turn vacuum off
G0 X53.411 Y51.612 Z10.0 F5000.0  ;Raise back up Resin extruder at pos
;Pick up 172
G0 X125 Y170 Z25 F5000
G0 Z10 F5000
M106
G0 Z30 F5000
;Puck Refill 172
G0 E-75 F10000
G0 E10 F10000
G0 E-75 F10000
G0 E10 F10000
G0 E-100 F10000
;Dip in resin 172
G0 X50 Y173 Z35 F5000.0  ;Move to pos
G0 Z10 F5000.0  ;Move down
G0 Z35.0F5000.0   ;Move up
;Move to place location 172
G0 X49.989 Y55.352 Z10.0 F5000.0  ;Move Resin extruder to pos
G0 X49.989 Y55.352 Z0.0 F5000.0   ;Lower Resin extruder at pos
M107	              ;Turn vacuum off
G0 X49.989 Y55.352 Z10.0 F5000.0  ;Raise back up Resin extruder at pos
;Pick up 173
G0 X125 Y170 Z25 F5000
G0 Z10 F5000
M106
G0 Z30 F5000
;Puck Refill 173
G0 E-75 F10000
G0 E10 F10000
G0 E-75 F10000
G0 E10 F10000
G0 E-100 F10000
;Dip in resin 173
G0 X50 Y173 Z35 F5000.0  ;Move to pos
G0 Z10 F5000.0  ;Move down
G0 Z35.0F5000.0   ;Move up
;Move to place location 173
G0 X47.202 Y59.585 Z10.0 F5000.0  ;Move Resin extruder to pos
G0 X47.202 Y59.585 Z0.0 F5000.0   ;Lower Resin extruder at pos
M107	              ;Turn vacuum off
G0 X47.202 Y59.585 Z10.0 F5000.0  ;Raise back up Resin extruder at pos
;Pick up 174
G0 X125 Y170 Z25 F5000
G0 Z10 F5000
M106
G0 Z30 F5000
;Puck Refill 174
G0 E-75 F10000
G0 E10 F10000
G0 E-75 F10000
G0 E10 F10000
G0 E-100 F10000
;Dip in resin 174
G0 X50 Y173 Z35 F5000.0  ;Move to pos
G0 Z10 F5000.0  ;Move down
G0 Z35.0F5000.0   ;Move up
;Move to place location 174
G0 X45.156 Y64.242 Z10.0 F5000.0  ;Move Resin extruder to pos
G0 X45.156 Y64.242 Z0.0 F5000.0   ;Lower Resin extruder at pos
M107	              ;Turn vacuum off
G0 X45.156 Y64.242 Z10.0 F5000.0  ;Raise back up Resin extruder at pos
;Pick up 175
G0 X125 Y170 Z25 F5000
G0 Z10 F5000
M106
G0 Z30 F5000
;Puck Refill 175
G0 E-75 F10000
G0 E10 F10000
G0 E-75 F10000
G0 E10 F10000
G0 E-100 F10000
;Dip in resin 175
G0 X50 Y173 Z35 F5000.0  ;Move to pos
G0 Z10 F5000.0  ;Move down
G0 Z35.0F5000.0   ;Move up
;Move to place location 175
G0 X43.922 Y69.181 Z10.0 F5000.0  ;Move Resin extruder to pos
G0 X43.922 Y69.181 Z0.0 F5000.0   ;Lower Resin extruder at pos
M107	              ;Turn vacuum off
G0 X43.922 Y69.181 Z10.0 F5000.0  ;Raise back up Resin extruder at pos
;Pick up 176
G0 X125 Y170 Z25 F5000
G0 Z10 F5000
M106
G0 Z30 F5000
;Puck Refill 176
G0 E-75 F10000
G0 E10 F10000
G0 E-75 F10000
G0 E10 F10000
G0 E-100 F10000
;Dip in resin 176
G0 X50 Y173 Z35 F5000.0  ;Move to pos
G0 Z10 F5000.0  ;Move down
G0 Z35.0F5000.0   ;Move up
;Move to place location 176
G0 X43.498 Y74.226 Z10.0 F5000.0  ;Move Resin extruder to pos
G0 X43.498 Y74.226 Z0.0 F5000.0   ;Lower Resin extruder at pos
M107	              ;Turn vacuum off
G0 X43.498 Y74.226 Z10.0 F5000.0  ;Raise back up Resin extruder at pos
;Pick up 177
G0 X125 Y170 Z25 F5000
G0 Z10 F5000
M106
G0 Z30 F5000
;Puck Refill 177
G0 E-75 F10000
G0 E10 F10000
G0 E-75 F10000
G0 E10 F10000
G0 E-100 F10000
;Dip in resin 177
G0 X50 Y173 Z35 F5000.0  ;Move to pos
G0 Z10 F5000.0  ;Move down
G0 Z35.0F5000.0   ;Move up
;Move to place location 177
G0 X43.922 Y79.306 Z10.0 F5000.0  ;Move Resin extruder to pos
G0 X43.922 Y79.306 Z0.0 F5000.0   ;Lower Resin extruder at pos
M107	              ;Turn vacuum off
G0 X43.922 Y79.306 Z10.0 F5000.0  ;Raise back up Resin extruder at pos
;Pick up 178
G0 X125 Y170 Z25 F5000
G0 Z10 F5000
M106
G0 Z30 F5000
;Puck Refill 178
G0 E-75 F10000
G0 E10 F10000
G0 E-75 F10000
G0 E10 F10000
G0 E-100 F10000
;Dip in resin 178
G0 X50 Y173 Z35 F5000.0  ;Move to pos
G0 Z10 F5000.0  ;Move down
G0 Z35.0F5000.0   ;Move up
;Move to place location 178
G0 X45.156 Y84.209 Z10.0 F5000.0  ;Move Resin extruder to pos
G0 X45.156 Y84.209 Z0.0 F5000.0   ;Lower Resin extruder at pos
M107	              ;Turn vacuum off
G0 X45.156 Y84.209 Z10.0 F5000.0  ;Raise back up Resin extruder at pos
;Pick up 179
G0 X125 Y170 Z25 F5000
G0 Z10 F5000
M106
G0 Z30 F5000
;Puck Refill 179
G0 E-75 F10000
G0 E10 F10000
G0 E-75 F10000
G0 E10 F10000
G0 E-100 F10000
;Dip in resin 179
G0 X50 Y173 Z35 F5000.0  ;Move to pos
G0 Z10 F5000.0  ;Move down
G0 Z35.0F5000.0   ;Move up
;Move to place location 179
G0 X47.202 Y88.866 Z10.0 F5000.0  ;Move Resin extruder to pos
G0 X47.202 Y88.866 Z0.0 F5000.0   ;Lower Resin extruder at pos
M107	              ;Turn vacuum off
G0 X47.202 Y88.866 Z10.0 F5000.0  ;Raise back up Resin extruder at pos
;Pick up 180
G0 X125 Y170 Z25 F5000
G0 Z10 F5000
M106
G0 Z30 F5000
;Puck Refill 180
G0 E-75 F10000
G0 E10 F10000
G0 E-75 F10000
G0 E10 F10000
G0 E-100 F10000
;Dip in resin 180
G0 X50 Y173 Z35 F5000.0  ;Move to pos
G0 Z10 F5000.0  ;Move down
G0 Z35.0F5000.0   ;Move up
;Move to place location 180
G0 X49.989 Y93.135 Z10.0 F5000.0  ;Move Resin extruder to pos
G0 X49.989 Y93.135 Z0.0 F5000.0   ;Lower Resin extruder at pos
M107	              ;Turn vacuum off
G0 X49.989 Y93.135 Z10.0 F5000.0  ;Raise back up Resin extruder at pos
;Pick up 181
G0 X125 Y170 Z25 F5000
G0 Z10 F5000
M106
G0 Z30 F5000
;Puck Refill 181
G0 E-75 F10000
G0 E10 F10000
G0 E-75 F10000
G0 E10 F10000
G0 E-100 F10000
;Dip in resin 181
G0 X50 Y173 Z35 F5000.0  ;Move to pos
G0 Z10 F5000.0  ;Move down
G0 Z35.0F5000.0   ;Move up
;Move to place location 181
G0 X53.411 Y96.874 Z10.0 F5000.0  ;Move Resin extruder to pos
G0 X53.411 Y96.874 Z0.0 F5000.0   ;Lower Resin extruder at pos
M107	              ;Turn vacuum off
G0 X53.411 Y96.874 Z10.0 F5000.0  ;Raise back up Resin extruder at pos
;Pick up 182
G0 X125 Y170 Z25 F5000
G0 Z10 F5000
M106
G0 Z30 F5000
;Puck Refill 182
G0 E-75 F10000
G0 E10 F10000
G0 E-75 F10000
G0 E10 F10000
G0 E-100 F10000
;Dip in resin 182
G0 X50 Y173 Z35 F5000.0  ;Move to pos
G0 Z10 F5000.0  ;Move down
G0 Z35.0F5000.0   ;Move up
;Move to place location 182
G0 X57.433 Y99.979 Z10.0 F5000.0  ;Move Resin extruder to pos
G0 X57.433 Y99.979 Z0.0 F5000.0   ;Lower Resin extruder at pos
M107	              ;Turn vacuum off
G0 X57.433 Y99.979 Z10.0 F5000.0  ;Raise back up Resin extruder at pos
;Pick up 183
G0 X125 Y170 Z25 F5000
G0 Z10 F5000
M106
G0 Z30 F5000
;Puck Refill 183
G0 E-75 F10000
G0 E10 F10000
G0 E-75 F10000
G0 E10 F10000
G0 E-100 F10000
;Dip in resin 183
G0 X50 Y173 Z35 F5000.0  ;Move to pos
G0 Z10 F5000.0  ;Move down
G0 Z35.0F5000.0   ;Move up
;Move to place location 183
G0 X61.878 Y102.378 Z10.0 F5000.0  ;Move Resin extruder to pos
G0 X61.878 Y102.378 Z0.0 F5000.0   ;Lower Resin extruder at pos
M107	              ;Turn vacuum off
G0 X61.878 Y102.378 Z10.0 F5000.0  ;Raise back up Resin extruder at pos
;Pick up 184
G0 X125 Y170 Z25 F5000
G0 Z10 F5000
M106
G0 Z30 F5000
;Puck Refill 184
G0 E-75 F10000
G0 E10 F10000
G0 E-75 F10000
G0 E10 F10000
G0 E-100 F10000
;Dip in resin 184
G0 X50 Y173 Z35 F5000.0  ;Move to pos
G0 Z10 F5000.0  ;Move down
G0 Z35.0F5000.0   ;Move up
;Move to place location 184
G0 X66.711 Y104.036 Z10.0 F5000.0  ;Move Resin extruder to pos
G0 X66.711 Y104.036 Z0.0 F5000.0   ;Lower Resin extruder at pos
M107	              ;Turn vacuum off
G0 X66.711 Y104.036 Z10.0 F5000.0  ;Raise back up Resin extruder at pos
;Pick up 185
G0 X125 Y170 Z25 F5000
G0 Z10 F5000
M106
G0 Z30 F5000
;Puck Refill 185
G0 E-75 F10000
G0 E10 F10000
G0 E-75 F10000
G0 E10 F10000
G0 E-100 F10000
;Dip in resin 185
G0 X50 Y173 Z35 F5000.0  ;Move to pos
G0 Z10 F5000.0  ;Move down
G0 Z35.0F5000.0   ;Move up
;Move to place location 185
G0 X71.721 Y104.883 Z10.0 F5000.0  ;Move Resin extruder to pos
G0 X71.721 Y104.883 Z0.0 F5000.0   ;Lower Resin extruder at pos
M107	              ;Turn vacuum off
G0 X71.721 Y104.883 Z10.0 F5000.0  ;Raise back up Resin extruder at pos
;Pick up 186
G0 X125 Y170 Z25 F5000
G0 Z10 F5000
M106
G0 Z30 F5000
;Puck Refill 186
G0 E-75 F10000
G0 E10 F10000
G0 E-75 F10000
G0 E10 F10000
G0 E-100 F10000
;Dip in resin 186
G0 X50 Y173 Z35 F5000.0  ;Move to pos
G0 Z10 F5000.0  ;Move down
G0 Z35.0F5000.0   ;Move up
;Move to place location 186
G0 X76.801 Y104.883 Z10.0 F5000.0  ;Move Resin extruder to pos
G0 X76.801 Y104.883 Z0.0 F5000.0   ;Lower Resin extruder at pos
M107	              ;Turn vacuum off
G0 X76.801 Y104.883 Z10.0 F5000.0  ;Raise back up Resin extruder at pos
;Pick up 187
G0 X125 Y170 Z25 F5000
G0 Z10 F5000
M106
G0 Z30 F5000
;Puck Refill 187
G0 E-75 F10000
G0 E10 F10000
G0 E-75 F10000
G0 E10 F10000
G0 E-100 F10000
;Dip in resin 187
G0 X50 Y173 Z35 F5000.0  ;Move to pos
G0 Z10 F5000.0  ;Move down
G0 Z35.0F5000.0   ;Move up
;Move to place location 187
G0 X81.81 Y104.036 Z10.0 F5000.0  ;Move Resin extruder to pos
G0 X81.81 Y104.036 Z0.0 F5000.0   ;Lower Resin extruder at pos
M107	              ;Turn vacuum off
G0 X81.81 Y104.036 Z10.0 F5000.0  ;Raise back up Resin extruder at pos
;Pick up 188
G0 X125 Y170 Z25 F5000
G0 Z10 F5000
M106
G0 Z30 F5000
;Puck Refill 188
G0 E-75 F10000
G0 E10 F10000
G0 E-75 F10000
G0 E10 F10000
