;Machine Setup
M201 X500.00 Y500.00 Z100.00 E5000.00    ;Setup machine max acceleration
M203 X500.00 Y500.00 Z10.00 		;Setup machine max feedrate
;E feedrate limit set in firmware
M204 P500.00 R1000.00 T500.00          ;Setup Print/Retract/Travel acceleration
M205 X8.00 Y8.00 Z0.40 E5.00             ;Setup Jerk
M220 S100                                ;Reset Feedrate
M221 S100                                ;Reset Flowrate
G90					;Absolute positioning mode
M302 S0        ;Cold Extrude (set min extrude temp to 0) always allow extrusion
M83            ;Relative extrusion mode
G92 E0         ;Reset Extruder sets Extruder to 0
;Homing and default stuff 
G28            				;Home
G0 Z8.0 F3000  				;Move Z Axis up
;starts the extruder a little higher to prevent dragging nibble clumps
G0 X9.4 Y10.5 Z10 F5000.0
G0 Z7 F5000.0
G0 X19.4 Y10.5 Z10 F5000.0
G0 Z7 F5000.0
G0 X29.4 Y10.5 Z10 F5000.0
G0 Z7 F5000.0
G0 X39.4 Y10.5 Z10 F5000.0
G0 Z7 F5000.0
G0 X49.4 Y10.5 Z10 F5000.0
G0 Z7 F5000.0
G0 X59.4 Y10.5 Z10 F5000.0
G0 Z7 F5000.0
G0 X69.4 Y10.5 Z10 F5000.0
G0 Z7 F5000.0
G0 X79.4 Y10.5 Z10 F5000.0
G0 Z7 F5000.0
G0 X89.4 Y10.5 Z10 F5000.0
G0 Z7 F5000.0
G0 X99.4 Y10.5 Z10 F5000.0
G0 Z7 F5000.0
G0 X109.4 Y10.5 Z10 F5000.0
G0 Z7 F5000.0
G0 X9.4 Y20.5 Z10 F5000.0
G0 Z7 F5000.0
G0 X19.4 Y20.5 Z10 F5000.0
G0 Z7 F5000.0
G0 X29.4 Y20.5 Z10 F5000.0
G0 Z7 F5000.0
G0 X39.4 Y20.5 Z10 F5000.0
G0 Z7 F5000.0
G0 X49.4 Y20.5 Z10 F5000.0
G0 Z7 F5000.0
G0 X59.4 Y20.5 Z10 F5000.0
G0 Z7 F5000.0
G0 X69.4 Y20.5 Z10 F5000.0
G0 Z7 F5000.0
G0 X79.4 Y20.5 Z10 F5000.0
G0 Z7 F5000.0
G0 X89.4 Y20.5 Z10 F5000.0
G0 Z7 F5000.0
G0 X99.4 Y20.5 Z10 F5000.0
G0 Z7 F5000.0
G0 X109.4 Y20.5 Z10 F5000.0
G0 Z7 F5000.0
G0 X9.4 Y30.5 Z10 F5000.0
G0 Z7 F5000.0
G0 X19.4 Y30.5 Z10 F5000.0
G0 Z7 F5000.0
G0 X29.4 Y30.5 Z10 F5000.0
G0 Z7 F5000.0
G0 X39.4 Y30.5 Z10 F5000.0
G0 Z7 F5000.0
G0 X49.4 Y30.5 Z10 F5000.0
G0 Z7 F5000.0
G0 X59.4 Y30.5 Z10 F5000.0
G0 Z7 F5000.0
G0 X69.4 Y30.5 Z10 F5000.0
G0 Z7 F5000.0
G0 X79.4 Y30.5 Z10 F5000.0
G0 Z7 F5000.0
G0 X89.4 Y30.5 Z10 F5000.0
G0 Z7 F5000.0
G0 X99.4 Y30.5 Z10 F5000.0
G0 Z7 F5000.0
G0 X109.4 Y30.5 Z10 F5000.0
G0 Z7 F5000.0
G0 X-0.6 Y40.5 Z10 F5000.0
G0 Z7 F5000.0
G0 X9.4 Y40.5 Z10 F5000.0
G0 Z7 F5000.0
G0 X19.4 Y40.5 Z10 F5000.0
G0 Z7 F5000.0
G0 X29.4 Y40.5 Z10 F5000.0
G0 Z7 F5000.0
G0 X39.4 Y40.5 Z10 F5000.0
G0 Z7 F5000.0
G0 X49.4 Y40.5 Z10 F5000.0
G0 Z7 F5000.0
G0 X59.4 Y40.5 Z10 F5000.0
G0 Z7 F5000.0
G0 X69.4 Y40.5 Z10 F5000.0
G0 Z7 F5000.0
G0 X79.4 Y40.5 Z10 F5000.0
G0 Z7 F5000.0
G0 X89.4 Y40.5 Z10 F5000.0
G0 Z7 F5000.0
G0 X99.4 Y40.5 Z10 F5000.0
G0 Z7 F5000.0
G0 X109.4 Y40.5 Z10 F5000.0
G0 Z7 F5000.0
G0 X-0.6 Y50.5 Z10 F5000.0
G0 Z7 F5000.0
G0 X9.4 Y50.5 Z10 F5000.0
G0 Z7 F5000.0
G0 X19.4 Y50.5 Z10 F5000.0
G0 Z7 F5000.0
G0 X29.4 Y50.5 Z10 F5000.0
G0 Z7 F5000.0
G0 X39.4 Y50.5 Z10 F5000.0
G0 Z7 F5000.0
G0 X49.4 Y50.5 Z10 F5000.0
G0 Z7 F5000.0
G0 X59.4 Y50.5 Z10 F5000.0
G0 Z7 F5000.0
G0 X69.4 Y50.5 Z10 F5000.0
G0 Z7 F5000.0
G0 X79.4 Y50.5 Z10 F5000.0
G0 Z7 F5000.0
G0 X89.4 Y50.5 Z10 F5000.0
G0 Z7 F5000.0
G0 X99.4 Y50.5 Z10 F5000.0
G0 Z7 F5000.0
G0 X109.4 Y50.5 Z10 F5000.0
G0 Z7 F5000.0
G0 X-0.6 Y60.5 Z10 F5000.0
G0 Z7 F5000.0
G0 X9.4 Y60.5 Z10 F5000.0
G0 Z7 F5000.0
G0 X19.4 Y60.5 Z10 F5000.0
G0 Z7 F5000.0
G0 X29.4 Y60.5 Z10 F5000.0
G0 Z7 F5000.0
G0 X39.4 Y60.5 Z10 F5000.0
G0 Z7 F5000.0
G0 X49.4 Y60.5 Z10 F5000.0
G0 Z7 F5000.0
G0 X59.4 Y60.5 Z10 F5000.0
G0 Z7 F5000.0
G0 X69.4 Y60.5 Z10 F5000.0
G0 Z7 F5000.0
G0 X79.4 Y60.5 Z10 F5000.0
G0 Z7 F5000.0
G0 X89.4 Y60.5 Z10 F5000.0
G0 Z7 F5000.0
G0 X99.4 Y60.5 Z10 F5000.0
G0 Z7 F5000.0
G0 X109.4 Y60.5 Z10 F5000.0
G0 Z7 F5000.0
G0 X-0.6 Y70.5 Z10 F5000.0
G0 Z7 F5000.0
G0 X9.4 Y70.5 Z10 F5000.0
G0 Z7 F5000.0
G0 X19.4 Y70.5 Z10 F5000.0
G0 Z7 F5000.0
G0 X29.4 Y70.5 Z10 F5000.0
G0 Z7 F5000.0
G0 X39.4 Y70.5 Z10 F5000.0
G0 Z7 F5000.0
G0 X49.4 Y70.5 Z10 F5000.0
G0 Z7 F5000.0
G0 X59.4 Y70.5 Z10 F5000.0
G0 Z7 F5000.0
G0 X69.4 Y70.5 Z10 F5000.0
G0 Z7 F5000.0
G0 X79.4 Y70.5 Z10 F5000.0
G0 Z7 F5000.0
G0 X89.4 Y70.5 Z10 F5000.0
G0 Z7 F5000.0
G0 X99.4 Y70.5 Z10 F5000.0
G0 Z7 F5000.0
G0 X109.4 Y70.5 Z10 F5000.0
G0 Z7 F5000.0
G0 X-0.6 Y80.5 Z10 F5000.0
G0 Z7 F5000.0
G0 X9.4 Y80.5 Z10 F5000.0
G0 Z7 F5000.0
G0 X19.4 Y80.5 Z10 F5000.0
G0 Z7 F5000.0
G0 X29.4 Y80.5 Z10 F5000.0
G0 Z7 F5000.0
G0 X39.4 Y80.5 Z10 F5000.0
G0 Z7 F5000.0
G0 X49.4 Y80.5 Z10 F5000.0
G0 Z7 F5000.0
G0 X59.4 Y80.5 Z10 F5000.0
G0 Z7 F5000.0
G0 X69.4 Y80.5 Z10 F5000.0
G0 Z7 F5000.0
G0 X-0.6 Y90.5 Z10 F5000.0
G0 Z7 F5000.0
G0 X9.4 Y90.5 Z10 F5000.0
G0 Z7 F5000.0
G0 X19.4 Y90.5 Z10 F5000.0
G0 Z7 F5000.0
G0 X29.4 Y90.5 Z10 F5000.0
G0 Z7 F5000.0
G0 X39.4 Y90.5 Z10 F5000.0
G0 Z7 F5000.0
G0 X49.4 Y90.5 Z10 F5000.0
G0 Z7 F5000.0
G0 X59.4 Y90.5 Z10 F5000.0
G0 Z7 F5000.0
G0 X69.4 Y90.5 Z10 F5000.0
G0 Z7 F5000.0
G0 X-0.6 Y100.5 Z10 F5000.0
G0 Z7 F5000.0
G0 X9.4 Y100.5 Z10 F5000.0
G0 Z7 F5000.0
G0 X19.4 Y100.5 Z10 F5000.0
G0 Z7 F5000.0
G0 X29.4 Y100.5 Z10 F5000.0
G0 Z7 F5000.0
G0 X39.4 Y100.5 Z10 F5000.0
G0 Z7 F5000.0
G0 X49.4 Y100.5 Z10 F5000.0
G0 Z7 F5000.0
G0 X59.4 Y100.5 Z10 F5000.0
G0 Z7 F5000.0
G0 X69.4 Y100.5 Z10 F5000.0
G0 Z7 F5000.0
G0 X-0.6 Y110.5 Z10 F5000.0
G0 Z7 F5000.0
G0 X9.4 Y110.5 Z10 F5000.0
G0 Z7 F5000.0
G0 X19.4 Y110.5 Z10 F5000.0
G0 Z7 F5000.0
G0 X29.4 Y110.5 Z10 F5000.0
G0 Z7 F5000.0
G0 X39.4 Y110.5 Z10 F5000.0
G0 Z7 F5000.0
G0 X49.4 Y110.5 Z10 F5000.0
G0 Z7 F5000.0
G0 X59.4 Y110.5 Z10 F5000.0
G0 Z7 F5000.0
G0 X69.4 Y110.5 Z10 F5000.0
G0 Z7 F5000.0
G0 X-0.6 Y120.5 Z10 F5000.0
G0 Z7 F5000.0
G0 X9.4 Y120.5 Z10 F5000.0
G0 Z7 F5000.0
G0 X19.4 Y120.5 Z10 F5000.0
G0 Z7 F5000.0
G0 X29.4 Y120.5 Z10 F5000.0
G0 Z7 F5000.0
G0 X39.4 Y120.5 Z10 F5000.0
G0 Z7 F5000.0
G0 X49.4 Y120.5 Z10 F5000.0
G0 Z7 F5000.0
G0 X59.4 Y120.5 Z10 F5000.0
G0 Z7 F5000.0
G0 X69.4 Y120.5 Z10 F5000.0
G0 Z7 F5000.0
G0 X-0.6 Y130.5 Z10 F5000.0
G0 Z7 F5000.0
G0 X9.4 Y130.5 Z10 F5000.0
G0 Z7 F5000.0
G0 X19.4 Y130.5 Z10 F5000.0
G0 Z7 F5000.0
G0 X29.4 Y130.5 Z10 F5000.0
G0 Z7 F5000.0
G0 X39.4 Y130.5 Z10 F5000.0
G0 Z7 F5000.0
G0 X49.4 Y130.5 Z10 F5000.0
G0 Z7 F5000.0
G0 X59.4 Y130.5 Z10 F5000.0
G0 Z7 F5000.0
G0 X69.4 Y130.5 Z10 F5000.0
G0 Z7 F5000.0
G0 X-0.6 Y140.5 Z10 F5000.0
G0 Z7 F5000.0
G0 X9.4 Y140.5 Z10 F5000.0
G0 Z7 F5000.0
G0 X19.4 Y140.5 Z10 F5000.0
G0 Z7 F5000.0
G0 X29.4 Y140.5 Z10 F5000.0
G0 Z7 F5000.0
G0 X39.4 Y140.5 Z10 F5000.0
G0 Z7 F5000.0
G0 X49.4 Y140.5 Z10 F5000.0
G0 Z7 F5000.0
G0 X59.4 Y140.5 Z10 F5000.0
G0 Z7 F5000.0
G0 X69.4 Y140.5 Z10 F5000.0
G0 Z7 F5000.0
G0 X-0.6 Y150.5 Z10 F5000.0
G0 Z7 F5000.0
G0 X9.4 Y150.5 Z10 F5000.0
G0 Z7 F5000.0
G0 X19.4 Y150.5 Z10 F5000.0
G0 Z7 F5000.0
G0 X29.4 Y150.5 Z10 F5000.0
G0 Z7 F5000.0
G0 X39.4 Y150.5 Z10 F5000.0
G0 Z7 F5000.0
G0 X49.4 Y150.5 Z10 F5000.0
G0 Z7 F5000.0
G0 X59.4 Y150.5 Z10 F5000.0
G0 Z7 F5000.0
G0 X69.4 Y150.5 Z10 F5000.0
G0 Z7 F5000.0
G0 X-0.6 Y160.5 Z10 F5000.0
G0 Z7 F5000.0
G0 X9.4 Y160.5 Z10 F5000.0
G0 Z7 F5000.0
G0 X19.4 Y160.5 Z10 F5000.0
G0 Z7 F5000.0
G0 X29.4 Y160.5 Z10 F5000.0
G0 Z7 F5000.0
G0 X39.4 Y160.5 Z10 F5000.0
G0 Z7 F5000.0
G0 X49.4 Y160.5 Z10 F5000.0
G0 Z7 F5000.0
G0 X59.4 Y160.5 Z10 F5000.0
G0 Z7 F5000.0
G0 X69.4 Y160.5 Z10 F5000.0
G0 Z7 F5000.0
G0 X-0.6 Y170.5 Z10 F5000.0
G0 Z7 F5000.0
G0 X9.4 Y170.5 Z10 F5000.0
G0 Z7 F5000.0
G0 X19.4 Y170.5 Z10 F5000.0
G0 Z7 F5000.0
G0 X29.4 Y170.5 Z10 F5000.0
G0 Z7 F5000.0
G0 X39.4 Y170.5 Z10 F5000.0
G0 Z7 F5000.0
G0 X49.4 Y170.5 Z10 F5000.0
G0 Z7 F5000.0
G0 X59.4 Y170.5 Z10 F5000.0
G0 Z7 F5000.0
G0 X69.4 Y170.5 Z10 F5000.0
G0 Z7 F5000.0
G0 X-0.6 Y180.5 Z10 F5000.0
G0 Z7 F5000.0
G0 X9.4 Y180.5 Z10 F5000.0
G0 Z7 F5000.0
G0 X19.4 Y180.5 Z10 F5000.0
G0 Z7 F5000.0
G0 X29.4 Y180.5 Z10 F5000.0
G0 Z7 F5000.0
G0 X39.4 Y180.5 Z10 F5000.0
G0 Z7 F5000.0
G0 X49.4 Y180.5 Z10 F5000.0
G0 Z7 F5000.0
G0 X59.4 Y180.5 Z10 F5000.0
G0 Z7 F5000.0
G0 X69.4 Y180.5 Z10 F5000.0
G0 Z7 F5000.0
G0 X-0.6 Y190.5 Z10 F5000.0
G0 Z7 F5000.0
G0 X9.4 Y190.5 Z10 F5000.0
G0 Z7 F5000.0
G0 X19.4 Y190.5 Z10 F5000.0
G0 Z7 F5000.0
G0 X29.4 Y190.5 Z10 F5000.0
G0 Z7 F5000.0
G0 X39.4 Y190.5 Z10 F5000.0
G0 Z7 F5000.0
G0 X49.4 Y190.5 Z10 F5000.0
G0 Z7 F5000.0
G0 X59.4 Y190.5 Z10 F5000.0
G0 Z7 F5000.0
G0 X69.4 Y190.5 Z10 F5000.0
G0 Z7 F5000.0
; Back to home
G28